!!!COM: Bach, Johann Sebastian
!!!OPR: Six Concerts Avec plusieurs ... le prince regnant d'Anhalt-Coethen
!!!OTL: Brandenburgische Konzerte D
!!!XEN: Brandenburg Concerto No. 5 in D major.
!!!OMV: Movement 3.
!!!SCT: BWV 1050
!!!YEC: Copyright 1994, Center for Computer Assisted Research in the Humanities
!!!YEM: Rights to all derivative electronic formats reserved.
!!!YEM: Refer to licensing agreement for further details.
!! For the following instrumentation: Flauto traverso, Violino principale,
!!    Violino di ripieno, Viola di ripieno, Violoncello, Violone,
!!    Cembalo concertato.
!! Allegro.
**kern	**kern	**kern	**kern	**kern	**kern	**kern	**kern	**kern
*Icemba	*Icemba	*Icemba	*Icbass	*Icello	*Iviola	*Ivioln	*Ivioln	*Iflt
*IGconc	*IGconc	*IGconc	*IGripn	*IGripn	*IGripn	*IGripn	*IGconc	*IGconc
!cemba1	!cemba2	!cemba3	!v'lone	!'cello	!vla'ri	!vln'ri	!vln pr	!flauto trav.
*k[f#c#]	*k[f#c#]	*k[f#c#]	*k[f#c#]	*k[f#c#]	*k[f#c#]	*k[f#c#]	*k[f#c#]	*k[f#c#]
*D:	*D:	*D:	*D:	*D:	*D:	*D:	*D:	*D:
*M2/4	*M2/4	*M2/4	*M2/4	*M2/4	*M2/4	*M2/4	*M2/4	*M2/4
*MM88	*MM88	*MM88	*MM88	*MM88	*MM88	*MM88	*MM88	*MM88
*clefF4	*clefG2	*clefG2	*clefF4	*clefF4	*clefC3	*clefG2	*clefG2	*clefG2
=1	=1	=1	=1	=1	=1	=1	=1	=1
2r	2r	2r	2r	2r	2r	2r	12r	2r
.	.	.	.	.	.	.	12r	.
.	.	.	.	.	.	.	12a/	.
.	.	.	.	.	.	.	6dd\L	.
.	.	.	.	.	.	.	12a\Jk	.
=2	=2	=2	=2	=2	=2	=2	=2	=2
2r	2r	2r	2r	2r	2r	2r	(12b/L	2r
.	.	.	.	.	.	.	12a/)	.
.	.	.	.	.	.	.	12g/J	.
.	.	.	.	.	.	.	(12f#/L	.
.	.	.	.	.	.	.	12g/)	.
.	.	.	.	.	.	.	12a/J	.
=3	=3	=3	=3	=3	=3	=3	=3	=3
2r	2r	2r	2r	2r	2r	2r	8d/	12r
.	.	.	.	.	.	.	.	12r
.	.	.	.	.	.	.	8r	.
.	.	.	.	.	.	.	.	12dd\
.	.	.	.	.	.	.	8c#/	6aa\L
.	.	.	.	.	.	.	8r	.
.	.	.	.	.	.	.	.	12ee\Jk
=4	=4	=4	=4	=4	=4	=4	=4	=4
2r	2r	2r	2r	2r	2r	2r	8d/	12ff#\L
.	.	.	.	.	.	.	.	12ee\
.	.	.	.	.	.	.	8r	.
.	.	.	.	.	.	.	.	12dd\J
.	.	.	.	.	.	.	8e/	12cc#\L
.	.	.	.	.	.	.	.	12dd\
.	.	.	.	.	.	.	8r	.
.	.	.	.	.	.	.	.	12ee\J
=5	=5	=5	=5	=5	=5	=5	=5	=5
2r	2r	2r	2r	2r	2r	2r	(12f#/L	8a/
.	.	.	.	.	.	.	12a/)	.
.	.	.	.	.	.	.	.	8r
.	.	.	.	.	.	.	12dd/J	.
.	.	.	.	.	.	.	(12dd\L	8f#/
.	.	.	.	.	.	.	12cc#\)	.
.	.	.	.	.	.	.	.	8r
.	.	.	.	.	.	.	12dd\J	.
=6	=6	=6	=6	=6	=6	=6	=6	=6
2r	2r	2r	2r	2r	2r	2r	(12b\L	8g/
.	.	.	.	.	.	.	12ee\)	.
.	.	.	.	.	.	.	.	8r
.	.	.	.	.	.	.	12dd\J	.
.	.	.	.	.	.	.	(12cc#\L	8a/
.	.	.	.	.	.	.	12ff#\)	.
.	.	.	.	.	.	.	.	8r
.	.	.	.	.	.	.	12ee\J	.
=7	=7	=7	=7	=7	=7	=7	=7	=7
2r	2r	2r	2r	2r	2r	2r	8dd\	12b\L
.	.	.	.	.	.	.	.	12dd\
.	.	.	.	.	.	.	8r	.
.	.	.	.	.	.	.	.	12ff#\J
.	.	.	.	.	.	.	8a/	12ff#\L
.	.	.	.	.	.	.	.	12ee\
.	.	.	.	.	.	.	8r	.
.	.	.	.	.	.	.	.	12ff#\J
=8	=8	=8	=8	=8	=8	=8	=8	=8
2r	2r	2r	2r	2r	2r	2r	8b\	12dd\L
.	.	.	.	.	.	.	.	12gg\
.	.	.	.	.	.	.	8r	.
.	.	.	.	.	.	.	.	12ff#\J
.	.	.	.	.	.	.	8cc#\	12ee\L
.	.	.	.	.	.	.	.	12aa\
.	.	.	.	.	.	.	8r	.
.	.	.	.	.	.	.	.	12gg\J
=9	=9	=9	=9	=9	=9	=9	=9	=9
12r	2r	2r	2r	2r	2r	2r	(12dd\L	(12ff#\L
12r	.	.	.	.	.	.	12ff#\)	12aa\)
12A\	.	.	.	.	.	.	12ee\J	12gg\J
6d\L	.	.	.	.	.	.	(12dd\L	(12ff#\L
.	.	.	.	.	.	.	12ff#\)	12aa\)
12A\Jk	.	.	.	.	.	.	12ee\J	12gg\J
=10	=10	=10	=10	=10	=10	=10	=10	=10
12B\L	2r	2r	2r	2r	2r	2r	[4dd\	6ff#\L
12A\	.	.	.	.	.	.	.	.
12G\J	.	.	.	.	.	.	.	12bb\Jk
12F#\L	.	.	.	.	.	.	6dd\L]	6aa\L
12G\	.	.	.	.	.	.	.	.
12A\J	.	.	.	.	.	.	12cc#\Jk	12gg\Jk
=11	=11	=11	=11	=11	=11	=11	=11	=11
8D\	2r	12r	2r	2r	2r	2r	(12dd\L	6ff#\L
.	.	12r	.	.	.	.	12ee\)	.
8r	.	.	.	.	.	.	.	.
.	.	12dd\	.	.	.	.	12ff#\J	12a\Jk
8C#/	.	6aa\L	.	.	.	.	(12ee\L	6ee\L
.	.	.	.	.	.	.	12ff#\)	.
8r	.	.	.	.	.	.	.	.
.	.	12ee\Jk	.	.	.	.	12gg\J	12a\Jk
=12	=12	=12	=12	=12	=12	=12	=12	=12
8D\	2r	12ff#\L	2r	2r	2r	2r	(12ff#\L	8ff#\
.	.	12ee\	.	.	.	.	12gg\)	.
8r	.	.	.	.	.	.	.	8r
.	.	12dd\J	.	.	.	.	12ff#\J	.
8E\	.	12cc#\L	.	.	.	.	(12ee\L	8gg#\
.	.	12dd\	.	.	.	.	12ff#\)	.
8r	.	.	.	.	.	.	.	8r
.	.	12ee\J	.	.	.	.	12dd\J	.
=13	=13	=13	=13	=13	=13	=13	=13	=13
8F#\	2r	12a\L	2r	2r	2r	2r	(12cc#\L	[2aa\
.	.	12cc#\	.	.	.	.	12ee\)	.
8r	.	.	.	.	.	.	.	.
.	.	12b\J	.	.	.	.	12dd\J	.
8C#/	.	12a\L	.	.	.	.	(12cc#\L	.
.	.	12b\	.	.	.	.	12dd\)	.
8r	.	.	.	.	.	.	.	.
.	.	12cc#\J	.	.	.	.	12ee\J	.
=14	=14	=14	=14	=14	=14	=14	=14	=14
8D\	2r	12f#/L	2r	2r	2r	2r	8b\	2aa\_
.	.	12b/	.	.	.	.	.	.
8r	.	.	.	.	.	.	8r	.
.	.	12a/J	.	.	.	.	.	.
8E\	.	12g#/L	.	.	.	.	8cc#\	.
.	.	12cc#/	.	.	.	.	.	.
8r	.	.	.	.	.	.	8r	.
.	.	12b/J	.	.	.	.	.	.
=15	=15	=15	=15	=15	=15	=15	=15	=15
8F#\	2r	24a/LL	2r	2r	2r	2r	[2dd\	8aa\]
.	.	24g#/	.	.	.	.	.	.
.	.	24a/	.	.	.	.	.	.
8r	.	24b/	.	.	.	.	.	8r
.	.	24cc#/	.	.	.	.	.	.
.	.	24dd/JJ	.	.	.	.	.	.
8E\	.	24ee\LL	.	.	.	.	.	8gg#\
.	.	24ff#\	.	.	.	.	.	.
.	.	24ee\	.	.	.	.	.	.
8r	.	24dd\	.	.	.	.	.	8r
.	.	24cc#\	.	.	.	.	.	.
.	.	24b\JJ	.	.	.	.	.	.
=16	=16	=16	=16	=16	=16	=16	=16	=16
8F#\	2r	24a/LL	2r	2r	2r	2r	2dd\_	8aa\
.	.	24cc#/	.	.	.	.	.	.
.	.	24b/	.	.	.	.	.	.
8r	.	24a/	.	.	.	.	.	8r
.	.	24g#/	.	.	.	.	.	.
.	.	24f#/JJ	.	.	.	.	.	.
8G#\	.	24e/LL	.	.	.	.	.	8bb\
.	.	24f#/	.	.	.	.	.	.
.	.	24e/	.	.	.	.	.	.
8r	.	24d/	.	.	.	.	.	8r
.	.	24c#/	.	.	.	.	.	.
.	.	24B/JJ	.	.	.	.	.	.
=17	=17	=17	=17	=17	=17	=17	=17	=17
12A\L	2r	8A/	2r	2r	2r	2r	12dd\L]	6ee\L
12c#\	.	.	.	.	.	.	12ee\	.
.	.	8r	.	.	.	.	.	.
12B\J	.	.	.	.	.	.	12dd\J	12ee\Jk
12A\L	.	8a/	.	.	.	.	(12cc#\L	6aa\L
12B\	.	.	.	.	.	.	12dd\)	.
.	.	8r	.	.	.	.	.	.
12c#\J	.	.	.	.	.	.	12ee\J	12ee\Jk
=18	=18	=18	=18	=18	=18	=18	=18	=18
8d\	2r	8a/	2r	2r	2r	2r	6a\L	12ff#\L
.	.	.	.	.	.	.	.	12ee\
8r	.	8r	.	.	.	.	.	.
.	.	.	.	.	.	.	12ff#\Jk	12dd\J
8e\	.	8g#/	.	.	.	.	6ee\L	12cc#\L
.	.	.	.	.	.	.	.	12dd\
8r	.	8r	.	.	.	.	.	.
.	.	.	.	.	.	.	12dd\Jk	12ee\J
=19	=19	=19	=19	=19	=19	=19	=19	=19
[2f#t\	2r	[2aT/	2r	2r	2r	2r	(12cc#\L	(12a\L
.	.	.	.	.	.	.	12ee\)	12cc#\)
.	.	.	.	.	.	.	12dd\J	12b\J
.	.	.	.	.	.	.	(12cc#\L	(12a\L
.	.	.	.	.	.	.	12ee\)	12cc#\)
.	.	.	.	.	.	.	12dd\J	12b\J
=20	=20	=20	=20	=20	=20	=20	=20	=20
12f#\]	2r	12a/]	2r	2r	2r	2r	[2cc#\	[2a/
12a\L	.	12cc#/L	.	.	.	.	.	.
12g#\J	.	12b/J	.	.	.	.	.	.
12f#\L	.	12a/L	.	.	.	.	.	.
12e\	.	12g#/	.	.	.	.	.	.
12d\J	.	12f#/J	.	.	.	.	.	.
=21	=21	=21	=21	=21	=21	=21	=21	=21
[2c#t\	2r	[2eT/	2r	2r	2r	2r	12cc#/L]	12a\L]
.	.	.	.	.	.	.	12e/	12cc#\
.	.	.	.	.	.	.	12d/J	12b\J
.	.	.	.	.	.	.	(12c#/L	(12a\L
.	.	.	.	.	.	.	12e/)	12cc#\)
.	.	.	.	.	.	.	12d/J	12b\J
=22	=22	=22	=22	=22	=22	=22	=22	=22
12c#\]	2r	12e/]	2r	2r	2r	2r	2c#/	[2a/
12A\L	.	12c#/L	.	.	.	.	.	.
12B\J	.	12d/J	.	.	.	.	.	.
12c#\L	.	12e/L	.	.	.	.	.	.
12B\	.	12d/	.	.	.	.	.	.
12c#\J	.	12e/J	.	.	.	.	.	.
=23	=23	=23	=23	=23	=23	=23	=23	=23
12d#\L	2r	12f#/L	2r	2r	2r	2r	2B/	2a/_
12f#\	.	12a/	.	.	.	.	.	.
12e\J	.	12g#/J	.	.	.	.	.	.
12d#\L	.	12f#/L	.	.	.	.	.	.
12f#\	.	12a/	.	.	.	.	.	.
12e\J	.	12g#/J	.	.	.	.	.	.
=24	=24	=24	=24	=24	=24	=24	=24	=24
12d#\L	2r	12f#/L	2r	2r	2r	2r	[2ff#\	2a/]
12B\	.	12d#/	.	.	.	.	.	.
12c#\J	.	12e/J	.	.	.	.	.	.
12d#\L	.	12f#/L	.	.	.	.	.	.
12c#\	.	12e/	.	.	.	.	.	.
12d#\J	.	12f#/J	.	.	.	.	.	.
=25	=25	=25	=25	=25	=25	=25	=25	=25
24e\LL	2r	8g#/	2r	2r	2r	2r	4ff#\]	12g#/L
24d\	.	.	.	.	.	.	.	.
24e\	.	.	.	.	.	.	.	12a/
24f#\	.	8r	.	.	.	.	.	.
24e\	.	.	.	.	.	.	.	12b/J
24d\JJ	.	.	.	.	.	.	.	.
24c#\LL	.	8b/ 8cc#/ 8ee/	.	.	.	.	12ee\L	[4cc#\
24d\	.	.	.	.	.	.	.	.
24c#\	.	.	.	.	.	.	12ff#\	.
24B\	.	8r	.	.	.	.	.	.
24A\	.	.	.	.	.	.	12gg#\J	.
24G#\JJ	.	.	.	.	.	.	.	.
=26	=26	=26	=26	=26	=26	=26	=26	=26
24F#\LL	2r	8a/ 8cc#/ 8ee/	2r	2r	2r	2r	[4aa\	12cc#\L]
24E\	.	.	.	.	.	.	.	.
24F#\	.	.	.	.	.	.	.	12ff#\
24G#\	.	8r	.	.	.	.	.	.
24A\	.	.	.	.	.	.	.	12ee\J
24F#\JJ	.	.	.	.	.	.	.	.
24B\LL	.	8f#/ 8b/ 8dd/	.	.	.	.	12aa\L]	[4dd\
24c#\	.	.	.	.	.	.	.	.
24B\	.	.	.	.	.	.	12bb\	.
24A\	.	8r	.	.	.	.	.	.
24G#\	.	.	.	.	.	.	12aa\J	.
24F#\JJ	.	.	.	.	.	.	.	.
=27	=27	=27	=27	=27	=27	=27	=27	=27
24E\LL	4r	8g#/ 8b/ 8dd/	2r	2r	2r	2r	(12gg#\L	6dd\L]
24D\	.	.	.	.	.	.	.	.
24E\	.	.	.	.	.	.	12ff#\)	.
24F#\	.	8r	.	.	.	.	.	.
24G#\	.	.	.	.	.	.	12ee\J	12bb\Jk
24E\JJ	.	.	.	.	.	.	.	.
24F#\LL	[4a\	6cc#/L	.	.	.	.	[4aa\	6cc#\L
24A\	.	.	.	.	.	.	.	.
24G#\	.	.	.	.	.	.	.	.
24F#\	.	.	.	.	.	.	.	.
24E\	.	12dd/Jk	.	.	.	.	.	12ff#\Jk
24D\JJ	.	.	.	.	.	.	.	.
=28	=28	=28	=28	=28	=28	=28	=28	=28
12C#/L	4a\]	6ee/L	2r	2r	2r	2r	4aa\]	12ee\L
12BB/	.	.	.	.	.	.	.	12dd\
12AA/J	.	12ff#/Jk	.	.	.	.	.	12cc#\J
6E/L	4r	6bT/L	.	.	.	.	4gg#\	12b\L
.	.	.	.	.	.	.	.	12cc#\
12EE/Jk	.	12a/Jk	.	.	.	.	.	12dd\J
=29	=29	=29	=29	=29	=29	=29	=29	=29
8AA/	2r	8a/	4r	4r	12r	2r	[4aa\	12cc#\L
.	.	.	.	.	12r	.	.	12b\
*accomp	*accomp	*accomp	*	*	*	*	*	*
8r	.	8r	.	.	.	.	.	.
.	.	.	.	.	12a\	.	.	12a\J
8FF#/	.	4r	8FFF#/	8FF#/	6dd\L	.	12aa\L]	[4dd\
.	.	.	.	.	.	.	12gg\	.
8r	.	.	8r	8r	.	.	.	.
.	.	.	.	.	12a\Jk	.	12ff#\J	.
=30	=30	=30	=30	=30	=30	=30	=30	=30
8GG/	2r	2r	8GGG/	8GG/	(12b\L	2r	[4ee\	12dd\L]
.	.	.	.	.	12a\)	.	.	12cc#\
8r	.	.	8r	8r	.	.	.	.
.	.	.	.	.	12g\J	.	.	12b\J
8AA/	.	.	8AAA/	8AA/	(12f#\L	.	12ee\L]	6a/L
.	.	.	.	.	12g\)	.	12dd\	.
8r	.	.	8r	8r	.	.	.	.
.	.	.	.	.	12a\J	.	12cc#\J	12g/Jk
=31	=31	=31	=31	=31	=31	=31	=31	=31
8BB/	2r	2r	8BBB/	8BB/	8d\	12r	(12dd\L	12f#/L
.	.	.	.	.	.	12r	12cc#\)	12e/
8r	.	.	8r	8r	8r	.	.	.
.	.	.	.	.	.	12dd\	12b\J	12d/J
8C#/	.	.	8CC#/	8C#/	8e\	6aa\L	(12a\L	8a/
.	.	.	.	.	.	.	12ee\)	.
8r	.	.	8r	8r	8r	.	.	8r
.	.	.	.	.	.	12ee\Jk	12gg\J	.
=32	=32	=32	=32	=32	=32	=32	=32	=32
8D\	2r	2r	8DD\	8D\	8A/	(12ff#\L	8ff#\	2r
.	.	.	.	.	.	12ee\)	.	.
8r	.	.	8r	8r	8r	.	8r	.
.	.	.	.	.	.	12dd\J	.	.
8E\	.	.	8EE\	8E\	8e\	(12cc#\L	8gg#\	.
.	.	.	.	.	.	12dd\)	.	.
8r	.	.	8r	8r	8r	.	8r	.
.	.	.	.	.	.	12ee\J	.	.
=33	=33	=33	=33	=33	=33	=33	=33	=33
8F#\	2r	2r	8FF#\	8F#\	(12c#\L	(12a\L	6aa\	12r
.	.	.	.	.	12d\)	12b\)	.	12r
8r	.	.	8r	8r	.	.	.	.
.	.	.	.	.	12e\J	12cc#\J	12aa\	12aa\
8F#\	.	.	8FF#\	8F#\	(12f#\L	(12dd\L	6ddd\L	6ddd\L
.	.	.	.	.	12g\)	12ee\)	.	.
8r	.	.	8r	8r	.	.	.	.
.	.	.	.	.	12a\J	12ff#\J	12aa\Jk	12aa\Jk
=34	=34	=34	=34	=34	=34	=34	=34	=34
8G\	2r	2r	8GG\	8G\	8d\	8b\	(12bb\L	12bb\L
.	.	.	.	.	.	.	12aa\)	12aa\
8r	.	.	8r	8r	8r	8r	.	.
.	.	.	.	.	.	.	12gg\J	12gg\J
8A\	.	.	8AA\	8A\	8a\	8cc#\	(12ff#\L	12ff#\L
.	.	.	.	.	.	.	12gg\)	12gg\
8r	.	.	8r	8r	8r	8r	.	.
.	.	.	.	.	.	.	12aa\J	12aa\J
=35	=35	=35	=35	=35	=35	=35	=35	=35
8B\	2r	2r	8BB\	8B\	8f#\	(12b\L	8dd\	8dd\
.	.	.	.	.	.	12dd\)	.	.
8r	.	.	8r	8r	8r	.	8r	8r
.	.	.	.	.	.	12ff#\J	.	.
8A\	.	.	8AA\	8A\	(12a\L	(12ff#\L	8cc#\	8cc#\
.	.	.	.	.	12g\)	12ee\)	.	.
8r	.	.	8r	8r	.	.	8r	8r
.	.	.	.	.	12a\J	12ff#\J	.	.
=36	=36	=36	=36	=36	=36	=36	=36	=36
8B\	2r	2r	8BB\	8B\	(12f#\L	(12dd\L	8b\	8b\
.	.	.	.	.	12e\)	12gg\)	.	.
8r	.	.	8r	8r	.	.	8r	8r
.	.	.	.	.	12d\J	12ff#\J	.	.
8c#\	.	.	8C#\	8c#\	8a\	(12ee\L	8ee\	8ee\
.	.	.	.	.	.	12aa\)	.	.
8r	.	.	8r	8r	8r	.	8r	8r
.	.	.	.	.	.	12gg\J	.	.
=37	=37	=37	=37	=37	=37	=37	=37	=37
8d\	2r	2r	8D\	8d\	8a\	8ff#\	(12dd\L	12dd\L
.	.	.	.	.	.	.	12ff#\)	12ff#\
8r	.	.	8r	8r	8r	8r	.	.
.	.	.	.	.	.	.	12aa\J	12aa\J
4r	.	.	4r	4r	8c#\	8ee\	(12aa\L	12aa\L
.	.	.	.	.	.	.	12gg\)	12gg\
.	.	.	.	.	8r	8r	.	.
.	.	.	.	.	.	.	12aa\J	12aa\J
=38	=38	=38	=38	=38	=38	=38	=38	=38
2r	2r	2r	2r	2r	8d\	8ee\	(12ff#\L	12ff#\L
.	.	.	.	.	.	.	12bb\)	12bb\
.	.	.	.	.	8r	8r	.	.
.	.	.	.	.	.	.	12aa\J	12aa\J
.	.	.	.	.	8e\	8dd\	(12gg#\L	12gg#\L
.	.	.	.	.	.	.	12ccc#\)	12ccc#\
.	.	.	.	.	8r	8r	.	.
.	.	.	.	.	.	.	12bb\J	12bb\J
=39	=39	=39	=39	=39	=39	=39	=39	=39
12r	2r	2r	12r	12r	6f#\L	(12cc#\L	[4aa\	[4aa\
12r	.	.	12r	12r	.	12dd\)	.	.
12A\	.	.	12AA\	12A\	12cc#\Jk	12ee\J	.	.
6d\L	.	.	6D\L	6d\L	6a\L	(12ff#\L	12aa\L]	12aa\L]
.	.	.	.	.	.	12gg\)	12bb\	12bb\
12A\Jk	.	.	12AA\Jk	12A\Jk	12g\Jk	12aa\J	12ccc#\J	12ccc#\J
=40	=40	=40	=40	=40	=40	=40	=40	=40
12B\L	2r	12r	(12BB\L	(12B\L	6f#\L	[4dd\	(12ddd\L	12ddd\L
12A\	.	12r	12AA\)	12A\)	.	.	12ccc#\)	12ccc#\
12G\J	.	12dd\	12GG\J	12G\J	12g\Jk	.	12bb\J	12bb\J
12F#\L	.	6aa\L	(12FF#\L	(12F#\L	6a\L	6dd\L]	(12aa\L	12aa\L
12G\	.	.	12GG\)	12G\)	.	.	12bb\)	12bb\
12A\J	.	12ee\Jk	12AA\J	12A\J	12a\Jk	12cc#\Jk	12gg\J	12gg\J
=41	=41	=41	=41	=41	=41	=41	=41	=41
8D\	2r	12ff#\L	8DD\	8D\	8a\	8dd\	8ff#\	8ff#\
.	.	12ee\	.	.	.	.	.	.
8r	.	.	8r	8r	8r	8r	8r	8r
.	.	12dd\J	.	.	.	.	.	.
8E\	.	12cc#\L	8EE\	8E\	8g\	8cc#\	8gg\	8gg\
.	.	12dd\	.	.	.	.	.	.
8r	.	.	8r	8r	8r	8r	8r	8r
.	.	12ee\J	.	.	.	.	.	.
=42	=42	=42	=42	=42	=42	=42	=42	=42
8F#\	2r	24a/LL	8FF#\	8F#\	8f#\	8dd\	8aa\	8aa\
.	.	24f#/	.	.	.	.	.	.
.	.	24g/	.	.	.	.	.	.
8r	.	24a/	8r	8r	8r	8r	8r	8r
.	.	24b/	.	.	.	.	.	.
.	.	24cc#/JJ	.	.	.	.	.	.
8FF#/	.	24dd\LL	8FFF#/	8FF#/	8d\	8a/	8cc\	8cc\
.	.	24ee\	.	.	.	.	.	.
.	.	24dd\	.	.	.	.	.	.
8r	.	24cc#\	8r	8r	8r	8r	8r	8r
.	.	24b\	.	.	.	.	.	.
.	.	24a\JJ	.	.	.	.	.	.
=43	=43	=43	=43	=43	=43	=43	=43	=43
8GG/	2r	24b\LL	8GGG/	8GG/	8d\	8g/	8b\	8b\
.	.	24dd\	.	.	.	.	.	.
.	.	24cc#\	.	.	.	.	.	.
8r	.	24b\	8r	8r	8r	8r	8r	8r
.	.	24a\	.	.	.	.	.	.
.	.	24g\JJ	.	.	.	.	.	.
8AA/	.	24f#/LL	8AAA/	8AA/	8a\	8f#/	8cc#\	8cc#\
.	.	24e/	.	.	.	.	.	.
.	.	24f#/	.	.	.	.	.	.
8r	.	24g/	8r	8r	8r	8r	8r	8r
.	.	24a/	.	.	.	.	.	.
.	.	24f#/JJ	.	.	.	.	.	.
=44	=44	=44	=44	=44	=44	=44	=44	=44
8BB/	2r	24d/LL	8BBB/	8BB/	8f#\	8b/	8dd\	8dd\
.	.	24c#/	.	.	.	.	.	.
.	.	24d/	.	.	.	.	.	.
8r	.	24e/	8r	8r	8r	8r	8r	8r
.	.	24f#/	.	.	.	.	.	.
.	.	24g/JJ	.	.	.	.	.	.
8C#/	.	24a/LL	8CC#/	8C#/	(12e\L	(12c#/L	(12e/L	(12a\L
.	.	24b/	.	.	.	.	.	.
.	.	24a/	.	.	12c#\	12e/	12a/	12cc#\
8r	.	24g/	8r	8r	.	.	.	.
.	.	24f#/	.	.	12A\J)	12a/J)	12cc#/J)	12ee\J)
.	.	24e/JJ	.	.	.	.	.	.
=45	=45	=45	=45	=45	=45	=45	=45	=45
8D\	2r	24f#/LL	8DD\	8D\	(12f#\L	(12d/L	(12f#/L	(12a\L
.	.	24a/	.	.	.	.	.	.
.	.	24g/	.	.	12d\	12f#/	12a/	12dd\
8r	.	24f#/	8r	8r	.	.	.	.
.	.	24e/	.	.	12A\J)	12a/J)	12dd/J)	12ff#\J)
.	.	24d/JJ	.	.	.	.	.	.
8E\	.	24c#/LL	8EE\	8E\	(12g\L	(12A/L	(12e/L	(12cc#\L
.	.	24B/	.	.	.	.	.	.
.	.	24c#/	.	.	12e\	12c#/	12a/	12ee\
8r	.	24d/	8r	8r	.	.	.	.
.	.	24e/	.	.	12c#\J)	12e/J)	12cc#/J)	12gg\J)
.	.	24c#/JJ	.	.	.	.	.	.
=46	=46	=46	=46	=46	=46	=46	=46	=46
8F#\	2r	24A/LL	8FF#\	8F#\	8f#\	8d/	8dd\	8aa\
.	.	24d/	.	.	.	.	.	.
.	.	24e/	.	.	.	.	.	.
8r	.	24f#/	8r	8r	8r	8r	8r	8r
.	.	24e/	.	.	.	.	.	.
.	.	24d/JJ	.	.	.	.	.	.
8G\	.	24B/LL	8GG\	8G\	8d\	8dd\	8gg\	8bb\
.	.	24e/	.	.	.	.	.	.
.	.	24f#/	.	.	.	.	.	.
8r	.	24g/	8r	8r	8r	8r	8r	8r
.	.	24f#/	.	.	.	.	.	.
.	.	24e/JJ	.	.	.	.	.	.
=47	=47	=47	=47	=47	=47	=47	=47	=47
8A\	2r	24c#/LL	8AA\	8A\	8f#\	8cc#\	8ff#\	8aa\
.	.	24f#/	.	.	.	.	.	.
.	.	24g/	.	.	.	.	.	.
8r	.	24a/	8r	8r	8r	8r	8r	8r
.	.	24g/	.	.	.	.	.	.
.	.	24f#/JJ	.	.	.	.	.	.
8B\	.	24d/LL	8BB\	8B\	8f#\	8b\	8dd\	8gg\
.	.	24g/	.	.	.	.	.	.
.	.	24a/	.	.	.	.	.	.
8r	.	24b/	8r	8r	8r	8r	8r	8r
.	.	24a/	.	.	.	.	.	.
.	.	24g/JJ	.	.	.	.	.	.
=48	=48	=48	=48	=48	=48	=48	=48	=48
6c#\	2r	24e/LL	6C#\	6c#\	8e\	8ee\	8a/	8gg\
.	.	24g/	.	.	.	.	.	.
.	.	24a/	.	.	.	.	.	.
.	.	24b/	.	.	8r	8r	8r	8r
12A\	.	24a/	12AA\	12A\	.	.	.	.
.	.	24g/JJ	.	.	.	.	.	.
6d\L	.	24f#/LL	6D\L	6d\L	6f#\L	6dd\L	6a/L	12ff#\L
.	.	24g/	.	.	.	.	.	.
.	.	24a/	.	.	.	.	.	12gg\
.	.	24b/	.	.	.	.	.	.
12A\Jk	.	24cc#/	12AA\Jk	12A\Jk	12e\Jk	12cc#\Jk	12g/Jk	12aa\J
.	.	24a/JJ	.	.	.	.	.	.
=49	=49	=49	=49	=49	=49	=49	=49	=49
12B\L	2r	12dd\L	(12BB\L	(12B\L	6d\L	6b/L	6f#/L	[4dd\
12A\	.	12cc#\	12AA\)	12A\)	.	.	.	.
12G\J	.	12b\J	12GG\J	12G\J	12g\Jk	12d/Jk	12g/Jk	.
12F#\L	.	12a/L	(12FF#\L	(12F#\L	6e\L	6f#/L	[4a/	12dd\L]
12G\	.	12b/	12GG\)	12G\)	.	.	.	12ee\
12A\J	.	12g/J	12AA\J	12A\J	12A\Jk	12e/Jk	.	12cc#\J
=50	=50	=50	=50	=50	=50	=50	=50	=50
12D\L	2r	8f#/	(12DD\L	(12D\L	8A/	8d/	12a/L]	6dd\
12F#\	.	.	12FF#\)	12F#\)	.	.	12a/	.
.	.	8r	.	.	8r	8r	.	.
12E\J	.	.	12EE\J	12E\J	.	.	12g/J	12aa\
12D\L	.	8dd\	(12DD\L	(12D\L	8d\	8a/	(12f#/L	6ddd\L
12E\	.	.	12EE\)	12E\)	.	.	12g/)	.
.	.	8r	.	.	8r	8r	.	.
12F#\J	.	.	12FF#\J	12F#\J	.	.	12a/J	12aa\Jk
=51	=51	=51	=51	=51	=51	=51	=51	=51
8G\	2r	8dd\	8GG\	8G\	8d\	8g/	6d/L	12bb\L
.	.	.	.	.	.	.	.	12aa\
8r	.	8r	8r	8r	8r	8r	.	.
.	.	.	.	.	.	.	12b/Jk	12gg\J
8A\	.	8cc#\	8AA\	8A\	8f#\	8c#/	6a/L	12ff#\L
.	.	.	.	.	.	.	.	12gg\
8r	.	8r	8r	8r	8r	8r	.	.
.	.	.	.	.	.	.	12g/Jk	12aa\J
=52	=52	=52	=52	=52	=52	=52	=52	=52
[2BT\	2r	[2ddT\	8BB\	8B\	[2B/	(12f#/L	(12f#/L	12dd\L
.	.	.	.	.	.	12d/)	12a/)	12ff#\
.	.	.	8r	8r	.	.	.	.
.	.	.	.	.	.	12e/J	12g/J	12ee\J
.	.	.	8BBB/	8BB/	.	(12f#/L	(12f#/L	12dd\L
.	.	.	.	.	.	12d/)	12a/)	12ff#\
.	.	.	8r	8r	.	.	.	.
.	.	.	.	.	.	12e/J	12g/J	12ee\J
=53	=53	=53	=53	=53	=53	=53	=53	=53
12B\]	2r	12dd\]	4r	4r	2B/]	[2f#/	[2f#/	[2dd\
12d\L	.	12ff#\L	.	.	.	.	.	.
12c#\J	.	12ee\J	.	.	.	.	.	.
12B\L	.	12dd\L	8BB\	8B\	.	.	.	.
12A\	.	12cc#\	.	.	.	.	.	.
.	.	.	8r	8r	.	.	.	.
12G\J	.	12b\J	.	.	.	.	.	.
=54	=54	=54	=54	=54	=54	=54	=54	=54
[2F#t\	2r	[2aT/	8FF#\	8F#\	[2A/	12f#/]	12f#/]	12dd\]
.	.	.	.	.	.	12d/L	12ff#\L	12aa\L
.	.	.	8r	8r	.	.	.	.
.	.	.	.	.	.	12e/J	12ee\J	12gg\J
.	.	.	8FFF#/	8FF#/	.	(12f#/L	(12dd\L	12ff#\L
.	.	.	.	.	.	12d/)	12ff#\)	12aa\
.	.	.	8r	8r	.	.	.	.
.	.	.	.	.	.	12e/J	12ee\J	12gg\J
=55	=55	=55	=55	=55	=55	=55	=55	=55
12F#\]	2r	12a/]	4r	4r	2A/]	6f#/L	[2dd\	2ff#\
12D\L	.	12f#/L	.	.	.	.	.	.
12E\J	.	12g/J	.	.	.	12a/Jk	.	.
12F#\L	.	12a/L	8FF#\	8F#\	.	(12dd\L	.	.
12E\	.	12g/	.	.	.	12cc#\)	.	.
.	.	.	8r	8r	.	.	.	.
12F#\J	.	12a/J	.	.	.	12dd\J	.	.
=56	=56	=56	=56	=56	=56	=56	=56	=56
12G#\L	2r	12b\L	8GG#\	8G#\	[2e\	[2b\	2dd\_	[2ee\
12B\	.	12dd\	.	.	.	.	.	.
.	.	.	8r	8r	.	.	.	.
12A\J	.	12cc#\J	.	.	.	.	.	.
12G#\L	.	12b\L	8GGG#/	8GG#/	.	.	.	.
12B\	.	12dd\	.	.	.	.	.	.
.	.	.	8r	8r	.	.	.	.
12A\J	.	12cc#\J	.	.	.	.	.	.
=57	=57	=57	=57	=57	=57	=57	=57	=57
12G#\L	2r	12b/L	4r	4r	2e\]	2b\]	2dd\]	2ee\_
12E\	.	12g#/	.	.	.	.	.	.
12F#\J	.	12a/J	.	.	.	.	.	.
12G#\L	.	12b/L	8GG#\	8G#\	.	.	.	.
12F#\	.	12a/	.	.	.	.	.	.
.	.	.	8r	8r	.	.	.	.
12G#\J	.	12b/J	.	.	.	.	.	.
=58	=58	=58	=58	=58	=58	=58	=58	=58
24A\LL	2r	8cc#/	8AA\	8A\	8e\	8cc#\	(12cc#\L	4ee\_
24c#\	.	.	.	.	.	.	.	.
24d\	.	.	.	.	.	.	12b\)	.
24e\	.	8r	8r	8r	8r	8r	.	.
24f#\	.	.	.	.	.	.	12a\J	.
24g\JJ	.	.	.	.	.	.	.	.
8a\	.	24r	4r	8F#\	8f#\	8cc#\	[4aa\	12ee\L]
.	.	24gg/LL	.	.	.	.	.	.
.	.	24ff#/	.	.	.	.	.	12ff#\
8r	.	24ee/	.	8r	8r	8r	.	.
.	.	24dd/	.	.	.	.	.	12ee\J
.	.	24cc#/JJ	.	.	.	.	.	.
=59	=59	=59	=59	=59	=59	=59	=59	=59
24r	2r	8dd/	2r	8BB/	8f#\	8b\	12aa\L]	[4dd\
24B\LL	.	.	.	.	.	.	.	.
24c#\	.	.	.	.	.	.	12bb\	.
24d\	.	8r	.	8r	8r	8r	.	.
24e\	.	.	.	.	.	.	12aa\J	.
24f#\JJ	.	.	.	.	.	.	.	.
8g\	.	24r	.	8E\	8e\	8b\	[4gg\	12dd\L]
.	.	24ff#/LL	.	.	.	.	.	.
.	.	24ee/	.	.	.	.	.	12ee\
8r	.	24dd/	.	8r	8r	8r	.	.
.	.	24cc#/	.	.	.	.	.	12dd\J
.	.	24b/JJ	.	.	.	.	.	.
=60	=60	=60	=60	=60	=60	=60	=60	=60
24r	2r	8cc#/	2r	8AA/	8e\	8a/	12gg\L]	4cc#\
24A\LL	.	.	.	.	.	.	.	.
24B\	.	.	.	.	.	.	12aa\	.
24c#\	.	8r	.	8r	8r	8r	.	.
24d\	.	.	.	.	.	.	12gg\J	.
24e\JJ	.	.	.	.	.	.	.	.
8f#\	.	24r	.	8D/	8d\	8a/	[4ff#\	12cc\L
.	.	24ee/LL	.	.	.	.	.	.
.	.	24dd/	.	.	.	.	.	12dd\
8r	.	24cc/	.	8r	8r	8r	.	.
.	.	24b/	.	.	.	.	.	12cc\J
.	.	24a/JJ	.	.	.	.	.	.
=61	=61	=61	=61	=61	=61	=61	=61	=61
8G\	2r	24b/LL	2r	4GG/	4d\	4b\	12ff#\L]	4b\
.	.	24cc/	.	.	.	.	.	.
.	.	24b/	.	.	.	.	12b\	.
8r	.	24a/	.	.	.	.	.	.
.	.	24g/	.	.	.	.	12dd\J	.
.	.	24f#/JJ	.	.	.	.	.	.
24e\LL	.	12r	.	4r	4r	4r	(12ee\L	[4gg\
24f#\	.	.	.	.	.	.	.	.
24e\	.	12r	.	.	.	.	12ff#\)	.
24d\	.	.	.	.	.	.	.	.
24c#\	.	12e/ 12g/ 12b/	.	.	.	.	12gg\J	.
24B\JJ	.	.	.	.	.	.	.	.
=62	=62	=62	=62	=62	=62	=62	=62	=62
24A\LL	2r	8e/ 8g/ 8a/ 8cc#/	12r	12r	12r	12r	(12cc#\L	12gg\L]
24B\	.	.	.	.	.	.	.	.
24A\	.	.	12r	12r	12r	12r	12ee\)	12cc#\
24G\	.	8r	.	.	.	.	.	.
24F#\	.	.	12AAA/	12AA/	12a\	12cc#\	12cc#\J	12ee\J
24E\JJ	.	.	.	.	.	.	.	.
24D/LL	.	8f#/ 8a/ 8dd/	6DD/L	6D/L	6f#\L	6dd\L	(12a\L	12ff#\L
24E/	.	.	.	.	.	.	.	.
24D/	.	.	.	.	.	.	12b\)	12gg\
24C#/	.	8r	.	.	.	.	.	.
24BB/	.	.	12AAA/Jk	12AA/Jk	12e\Jk	12cc#\Jk	12cc#\J	12aa\J
24AA/JJ	.	.	.	.	.	.	.	.
=63	=63	=63	=63	=63	=63	=63	=63	=63
12BB/L	2r	6f#/ 6b/ 6dd/L	(12BBB/L	(12BB/L	(12d\L	6b\L	6f#/L	6dd\L
12AA/	.	.	12AAA/)	12AA/)	12c#\)	.	.	.
12GG/J	.	12e/ 12b/ 12dd/Jk	12GGG/J	12GG/J	12B\J	12b\Jk	12g/Jk	12ee\Jk
6AA/L	.	6e/ 6a/ 6cc#/L	6AAA/L	6AA/L	(12e\L	6a/L	6eT/L	6cc#t\L
.	.	.	.	.	12f#\)	.	.	.
12AA/Jk	.	12e/ 12g/ 12cc#/Jk	12AAA/Jk	12AA/Jk	12g\J	12a/Jk	12d/Jk	12dd\Jk
=64	=64	=64	=64	=64	=64	=64	=64	=64
8DD/	2r	8d/ 8f#/ 8a/ 8dd/	8DDD/	8DD/	6f#\	8a/	[2d/	4dd\
8r	.	8r	8r	8r	.	8r	.	.
.	.	.	.	.	12a\	.	.	.
*accomp	*accomp	*accomp	*	*	*	*	*	*
8FF#/	.	4r	4r	8FF#/	6dd\L	4r	.	4cc\
8r	.	.	.	8r	.	.	.	.
.	.	.	.	.	12a\Jk	.	.	.
=65	=65	=65	=65	=65	=65	=65	=65	=65
8GG/	2r	2r	2r	8GG/	(12b\L	12r	2d/_	4b\
.	.	.	.	.	12a\)	12r	.	.
8r	.	.	.	8r	.	.	.	.
.	.	.	.	.	12g\J	12g/	.	.
8C/	.	.	.	8C/	(12f#\L	6dd\L	.	4a/
.	.	.	.	.	12g\)	.	.	.
8r	.	.	.	8r	.	.	.	.
.	.	.	.	.	12a\J	12a\Jk	.	.
=66	=66	=66	=66	=66	=66	=66	=66	=66
6BB/	2r	2r	12r	6BB/	8d\	(12b/L	2d/_	12g/L
.	.	.	12r	.	.	12a/)	.	12a/
.	.	.	.	.	8r	.	.	.
12G\	.	.	12GG\	12G\	.	12g/J	.	12b/J
6d\L	.	.	6D\L	6d\L	8d\	(12f#/L	.	12a\L
.	.	.	.	.	.	12g/)	.	12b\
.	.	.	.	.	8r	.	.	.
12A\Jk	.	.	12AA\Jk	12A\Jk	.	12a/J	.	12cc\J
=67	=67	=67	=67	=67	=67	=67	=67	=67
12B\L	2r	12r	(12BB\L	(12B\L	(12d\L	8d/	4d/_	4f#/
12A\	.	12r	12AA\)	12A\)	12c\)	.	.	.
.	.	.	.	.	.	8r	.	.
12G\J	.	12g/	12GG\J	12G\J	12B\J	.	.	.
12F#\L	.	6dd\L	(12FF#\L	(12F#\L	(12A/L	8a/	12d/L]	[4dd\
12G#\	.	.	12GG#\)	12G#\)	12B/)	.	12e/	.
.	.	.	.	.	.	8r	.	.
12A\J	.	12a\Jk	12AA\J	12A\J	12c#/J	.	12f#/J	.
=68	=68	=68	=68	=68	=68	=68	=68	=68
[2G#t\	2r	[2bT\	8GG#\	8G#\	(12B\L	[2e/	[2e/	12dd\]
.	.	.	.	.	12d\)	.	.	12ff#\L
.	.	.	8r	8r	.	.	.	.
.	.	.	.	.	12c#\J	.	.	12ee\J
.	.	.	8GGG#/	8GG#/	(12B\L	.	.	12dd\L
.	.	.	.	.	12d\)	.	.	12ff#\
.	.	.	8r	8r	.	.	.	.
.	.	.	.	.	12c#\J	.	.	12ee\J
=69	=69	=69	=69	=69	=69	=69	=69	=69
12G#\]	2r	12b\]	4r	4r	[2B/	12e/L]	2e/_	[2dd\
12B\L	.	12dd\L	.	.	.	12g#/	.	.
12A\J	.	12cc#\J	.	.	.	12a/J	.	.
12G#\L	.	12b\L	8GG#\	8G#\	.	(12b/L	.	.
12B\	.	12dd\	.	.	.	12g#/)	.	.
.	.	.	8r	8r	.	.	.	.
12A\J	.	12cc#\J	.	.	.	12a/J	.	.
=70	=70	=70	=70	=70	=70	=70	=70	=70
[2G#t\	2r	[2bT\	8GG#\	8G#\	12B/]	[2b\	2e/_	12dd\]
.	.	.	.	.	12G#/L	.	.	12b\L
.	.	.	8r	8r	.	.	.	.
.	.	.	.	.	12A/J	.	.	12cc#\J
.	.	.	8GGG#/	8GG#/	12B/L	.	.	12dd\L
.	.	.	.	.	12G#/	.	.	12b\
.	.	.	8r	8r	.	.	.	.
.	.	.	.	.	12A/J	.	.	12cc#\J
=71	=71	=71	=71	=71	=71	=71	=71	=71
12G#\]	2r	12b\]	4r	4r	[4B/	12b/]	4e/]	[4dd\
12B\L	.	12dd\L	.	.	.	12g#/L	.	.
12A\J	.	12cc#\J	.	.	.	12a/J	.	.
12G#\L	.	12b/L	8GG#\	8G#\	6B\L]	6b\L	[4ee\	6dd\L]
12F#\	.	12a/	.	.	.	.	.	.
.	.	.	8r	8r	.	.	.	.
12E\J	.	12g#/J	.	.	12g#\Jk	12b\Jk	.	12ee\Jk
=72	=72	=72	=72	=72	=72	=72	=72	=72
12A\L	2r	12cc#\L	8AA\	8A\	6a\L	8cc#\	4ee\]	2cc#\
12c#\	.	12ee\	.	.	.	.	.	.
.	.	.	8r	8r	.	8r	.	.
12B\J	.	12dd\J	.	.	12e\Jk	.	.	.
12A\L	.	12cc#\L	12r	12r	8a\	12r	[4ff#\	.
12G\	.	12b\	12r	12r	.	12r	.	.
.	.	.	.	.	8r	.	.	.
12F#\J	.	12a\J	12FF#\	12F#\	.	12ff#\	.	.
=73	=73	=73	=73	=73	=73	=73	=73	=73
12B\L	2r	12dd\L	8BB\	8B\	12r	8dd\	4ff#\]	2dd\
12d\	.	12ff#\	.	.	12r	.	.	.
.	.	.	8r	8r	.	8r	.	.
12c#\J	.	12ee\J	.	.	12f#\	.	.	.
12B\L	.	12dd\L	12r	12r	8b\	12r	[4gg\	.
12A\	.	12cc#\	12r	12r	.	12r	.	.
.	.	.	.	.	8r	.	.	.
12G\J	.	12b\J	12GG\	12G\	.	12gg\	.	.
=74	=74	=74	=74	=74	=74	=74	=74	=74
12c#\L	2r	12ee\L	8C#\	8c#\	12r	8ee\	4gg\]	2ee\
12e\	.	12gg\	.	.	12r	.	.	.
.	.	.	8r	8r	.	8r	.	.
12d\J	.	12ff#\J	.	.	12a\	.	.	.
12c#\L	.	12ee\L	12r	12r	8cc#\	12r	[4aa\	.
12B\	.	12dd\	12r	12r	.	12r	.	.
.	.	.	.	.	8r	.	.	.
12A\J	.	12cc#\J	12AA\	12A\	.	12aa\	.	.
=75	=75	=75	=75	=75	=75	=75	=75	=75
8d\	2r	8ff#\	8D\	8d\	4r	8ff#\	6aa\]	6ff#\
8r	.	8r	8r	8r	.	8r	.	.
.	.	.	.	.	.	.	12aa\	12aa\
*accomp	*accomp	*accomp	*	*	*	*	*	*
8F#\	.	4r	8FF#\	8F#\	8d\	8aa\	6ddd\L	6ddd\L
8r	.	.	8r	8r	8r	8r	.	.
.	.	.	.	.	.	.	12aa\Jk	12aa\Jk
=76	=76	=76	=76	=76	=76	=76	=76	=76
8G\	2r	2r	8GG\	8G\	8d\	8dd\	(12bb\L	(12bb\L
.	.	.	.	.	.	.	12aa\)	12aa\)
8r	.	.	8r	8r	8r	8r	.	.
.	.	.	.	.	.	.	12gg\J	12gg\J
8A\	.	.	8AA\	8A\	8a\	8cc#\	(12ff#\L	(12ff#\L
.	.	.	.	.	.	.	12gg\)	12gg\)
8r	.	.	8r	8r	8r	8r	.	.
.	.	.	.	.	.	.	12aa\J	12aa\J
=77	=77	=77	=77	=77	=77	=77	=77	=77
12B\L	2r	2r	(12BB\L	(12B\L	6f#\L	6b\L	6dd\L	6dd\L
12A\	.	.	12AA\)	12A\)	.	.	.	.
12G\J	.	.	12GG\J	12G\J	12g\Jk	12b\Jk	12ee\Jk	12ee\Jk
6A\L	.	.	6AA\L	6A\L	6eT\L	6a/L	6cc#t\L	6cc#t\L
12AA\Jk	.	.	12AAA\Jk	12AA\Jk	12f#\Jk	12a/Jk	12dd\Jk	12dd\Jk
=78	=78	=78	=78	=78	=78	=78	=78	=78
12D\L	2r	2r	(12DD\L	(12D\L	2f#\	2a/	2dd\	2dd\
12F#\	.	.	12FF#\)	12F#\)	.	.	.	.
12E\J	.	.	12EE\J	12E\J	.	.	.	.
12D\L	.	.	(12DD\L	(12D\L	.	.	.	.
12E\	.	.	12EE\)	12E\)	.	.	.	.
12F#\J	.	.	12FF#\J	12F#\J	.	.	.	.
=79	=79	=79	=79	=79	=79	=79	=79	=79
!	!	! (piano)	!	!	!	!	!	!
8BB/	2r	(12f#/L	8BBB/	8BB/	2r	2r	(12b\L	12r
.	.	12b/	.	.	.	.	12dd\	12r
8r	.	.	8r	8r	.	.	.	.
.	.	12dd/J)	.	.	.	.	12ff#\J)	12ff#\
4r	.	(12dd\L	4r	4r	.	.	(12ff#\L	6bb\L
.	.	12cc#\	.	.	.	.	12ee\	.
.	.	12dd\J)	.	.	.	.	12ff#\J)	12ff#\Jk
=80	=80	=80	=80	=80	=80	=80	=80	=80
8BB/	2r	(12f#/L	2r	8BB/	2r	2r	(12b\L	[2gg\
.	.	12b/	.	.	.	.	12dd\	.
8r	.	.	.	8r	.	.	.	.
.	.	12dd/J)	.	.	.	.	12ff#\J)	.
4r	.	(12dd\L	.	4r	.	.	(12ff#\L	.
.	.	12cc#\	.	.	.	.	12ee\	.
.	.	12dd\J)	.	.	.	.	12ff#\J)	.
=81	=81	=81	=81	=81	=81	=81	=81	=81
8BB/	2r	(12g/L	2r	8BB/	2r	2r	(12b\L	6gg\L]
.	.	12a#/	.	.	.	.	12dd#\	.
8r	.	.	.	8r	.	.	.	.
.	.	12b/J)	.	.	.	.	12ee\J)	12gg\Jk
4r	.	(12cc#\L	.	4r	.	.	(12ee\L	(12aa\L
.	.	12a#\	.	.	.	.	12dd#\	12ff#\)
.	.	12b\J)	.	.	.	.	12ee\J)	12gg\J
=82	=82	=82	=82	=82	=82	=82	=82	=82
8BB/	2r	(12e/L	2r	8BB/	2r	2r	(12a#\L	[2ff#\
.	.	12a#/	.	.	.	.	12cc#\	.
8r	.	.	.	8r	.	.	.	.
.	.	12cc#/J)	.	.	.	.	12ee\J)	.
4r	.	(12cc#\L	.	4r	.	.	(12ee\L	.
.	.	12b\	.	.	.	.	12dd\	.
.	.	12cc#\J)	.	.	.	.	12ee\J)	.
=83	=83	=83	=83	=83	=83	=83	=83	=83
8BB/	2r	(12f#/L	2r	8BB/	2r	2r	(12b\L	6ff#\L]
.	.	12b/	.	.	.	.	12dd\	.
8r	.	.	.	8r	.	.	.	.
.	.	12dd/J)	.	.	.	.	12ff#\J)	12ff#\Jk
4r	.	(12dd\L	.	4r	.	.	(12ff#\L	6bb\L
.	.	12cc#\	.	.	.	.	12ee\	.
.	.	12dd\J)	.	.	.	.	12ff#\J)	12gg\Jk
=84	=84	=84	=84	=84	=84	=84	=84	=84
8BB/	2r	(12e/L	2r	8BB/	2r	2r	(12cc#\L	[2ee\
.	.	12g/	.	.	.	.	12ee\	.
8r	.	.	.	8r	.	.	.	.
.	.	12cc#/J)	.	.	.	.	12gg\J)	.
4r	.	(12cc#\L	.	4r	.	.	(12gg\L	.
.	.	12a#\	.	.	.	.	12ff#\	.
.	.	12b\J)	.	.	.	.	12gg\J)	.
=85	=85	=85	=85	=85	=85	=85	=85	=85
8BB/	2r	(12cc#\L	2r	8BB/	2r	2r	(12a#/L	12ee\L]
.	.	12a#\)	.	.	.	.	12f#/)	12ff#\
8r	.	.	.	8r	.	.	.	.
.	.	12b\J	.	.	.	.	12ee/J	12gg\J
4r	.	(12f#/L	.	4r	.	.	(12dd\L	12ff#\L
.	.	12b/)	.	.	.	.	12ee\)	12gg\
.	.	12a#/J	.	.	.	.	12cc#\J	12ee\J
=86	=86	=86	=86	=86	=86	=86	=86	=86
6BB/	2r	8b\	2r	12r	2r	2r	8b\	12dd\L
.	.	.	.	12r	.	.	.	12b\
.	.	8r	.	.	.	.	8r	.
12F#\	.	.	.	12F#\	.	.	.	12cc#\J
12B\L	.	4r	.	(12B\L	.	.	8f#/	12dd\L
12d\	.	.	.	12d\)	.	.	.	12ff#\
.	.	.	.	.	.	.	8r	.
12c#\J	.	.	.	12c#\J	.	.	.	12ee\J
=87	=87	=87	=87	=87	=87	=87	=87	=87
12d\L	2r	2r	2r	(12d\L	12r	12r	8b\	12ff#\L
12c#\	.	.	.	12c#\)	12r	12r	.	12ee\
.	.	.	.	.	.	.	8r	.
12B\J	.	.	.	12B\J	12b\	12b\	.	12dd\J
12A#\L	.	.	.	(12A#\L	6f#\L	6ff#\L	12cc#\L	12cc#\L
12B\	.	.	.	12B\)	.	.	12dd\	12dd\
12c#\J	.	.	.	12c#\J	12cc#\Jk	12cc#\Jk	12ee\J	12b\J
=88	=88	=88	=88	=88	=88	=88	=88	=88
[4F#\	2r	2r	2r	[4F#\	(12dd\L	(12dd\L	(12ff#\L	12a#\L
.	.	.	.	.	12cc#\)	12cc#\)	12ee\)	12cc#\
.	.	.	.	.	12b\J	12b\J	12dd\J	12ff#\J
12F#\L]	.	.	.	12F#\L]	(12a#\L	(12a#\L	(12cc#\L	12ee\L
12G\	.	.	.	12G\	12b\)	12b\)	12b\)	12dd\
12E\J	.	.	.	12E\J	12cc#\J	12cc#\J	12a#\J	12cc#\J
=89	=89	=89	=89	=89	=89	=89	=89	=89
12D/L	2r	(12b\L	2r	(12D/L	8f#\	(12f#\L	6b\	(12b\L
12C#/	.	12ff#\	.	12C#/	.	12b\	.	12dd\
.	.	.	.	.	8r	.	.	.
12BB/J	.	12bb\J)	.	12BB/J)	.	12dd\J)	12ff#\	12ff#\J)
4r	.	(12bb\L	.	4r	4r	(12dd\L	6bb\L	(12ff#\L
.	.	12aa#\	.	.	.	12cc#\	.	12ee\
.	.	12bb\J)	.	.	.	12dd\J)	12ff#\Jk	12ff#\J)
=90	=90	=90	=90	=90	=90	=90	=90	=90
8BB/	2r	(12dd\L	2r	8BB/	2r	(12f#\L	[2gg\	(12b\L
.	.	12ff#\	.	.	.	12b\	.	12dd\
8r	.	.	.	8r	.	.	.	.
.	.	12bb\J)	.	.	.	12dd\J)	.	12ff#\J)
4r	.	(12bb\L	.	4r	.	(12dd\L	.	(12ff#\L
.	.	12aa#\	.	.	.	12cc#\	.	12ee\
.	.	12bb\J)	.	.	.	12dd\J)	.	12ff#\J)
=91	=91	=91	=91	=91	=91	=91	=91	=91
8BB/	2r	(12ee\L	2r	8BB/	2r	(12g/L	6gg\L]	(12b\L
.	.	12ff#\	.	.	.	12a#/	.	12dd#\
8r	.	.	.	8r	.	.	.	.
.	.	12gg\J)	.	.	.	12b/J)	12gg\Jk	12ee\J)
4r	.	(12ee\L	.	4r	.	(12cc#/L	(12aa\L	(12ee\L
.	.	12ff#\	.	.	.	12a#/	12ff#\)	12dd#\
.	.	12dd\J)	.	.	.	12b/J)	12gg\J	12ee\J)
=92	=92	=92	=92	=92	=92	=92	=92	=92
8BB/	2r	(12cc#\L	2r	8BB/	2r	(12e/L	[2ff#\	(12a#\L
.	.	12ee\	.	.	.	12a#/	.	12cc#\
8r	.	.	.	8r	.	.	.	.
.	.	12aa#\J)	.	.	.	12cc#/J)	.	12ee\J)
4r	.	(12aa#\L	.	4r	.	(12cc#\L	.	(12ee\L
.	.	12gg#\	.	.	.	12b\	.	12dd\
.	.	12aa#\J)	.	.	.	12cc#\J)	.	12ee\J)
=93	=93	=93	=93	=93	=93	=93	=93	=93
8BB/	2r	(12dd\L	2r	8BB/	2r	(12f#\L	6ff#\L]	(12b\L
.	.	12ff#\	.	.	.	12b\	.	12dd\
8r	.	.	.	8r	.	.	.	.
.	.	12bb\J)	.	.	.	12dd\J)	12ff#\Jk	12ff#\J)
4r	.	(12bb\L	.	4r	.	(12dd\L	6bb\L	(12ff#\L
.	.	12aa#\	.	.	.	12cc#\	.	12ee\
.	.	12bb\J)	.	.	.	12dd\J)	12gg\Jk	12ff#\J)
=94	=94	=94	=94	=94	=94	=94	=94	=94
8BB/	2r	(12gg\L	2r	8BB/	2r	(12e/L	[2ee\)	(12cc#\L
.	.	12ee\	.	.	.	12g/	.	12ee\
8r	.	.	.	8r	.	.	.	.
.	.	12cc#\J)	.	.	.	12cc#/J)	.	12gg\J)
4r	.	(12a#\L	.	4r	.	(12cc#/L	.	(12gg\L
.	.	12cc#\	.	.	.	12a#/	.	12ff#\
.	.	12b\J)	.	.	.	12b/J)	.	12gg\J)
=95	=95	=95	=95	=95	=95	=95	=95	=95
8BB/	2r	(12a#\L	2r	8BB/	2r	(12cc#/L	12ee\L]	(12a#/L
.	.	12cc#\)	.	.	.	12a#/)	12ff#\	12f#/)
8r	.	.	.	8r	.	.	.	.
.	.	12b\J	.	.	.	12b/J	12gg\J	12ee/J
4r	.	(12a#\L	.	4r	.	(12f#/L	(12ff#\L	(12dd\L
.	.	12b\)	.	.	.	12b/)	12gg\)	12ee\)
.	.	12cc#\J	.	.	.	12a#/J	12ee\J	12cc#\J
=96	=96	=96	=96	=96	=96	=96	=96	=96
8.BB/	2r	8dd\	2r	12r	2r	8b/	(12dd\L	8b\
.	.	.	.	12r	.	.	12b\	.
.	.	8r	.	.	.	8r	.	8r
.	.	.	.	12F#\	.	.	12cc#\J)	.
16F#\	.	.	.	.	.	.	.	.
12B\L	.	4r	.	(12B\L	.	4r	(12dd\L	8b\
12A\	.	.	.	12A\)	.	.	12ff#\	.
.	.	.	.	.	.	.	.	8r
12G#\J	.	.	.	12G#\J	.	.	12ee#\J)	.
=97	=97	=97	=97	=97	=97	=97	=97	=97
12A\L	2r	2r	2r	(12A\L	12r	12r	(12ff#\L	8cc#\
12G#\	.	.	.	12G#\)	12r	12r	12gg#\)	.
.	.	.	.	.	.	.	.	8r
12F#\J	.	.	.	12F#\J	12f#\	12f#/	12aa\J	.
12E#\L	.	.	.	(12E#\L	6cc#\L	6cc#/L	(12gg#\L	(12b/L
12F#\	.	.	.	12F#\)	.	.	12aa\)	12a/)
12G#\J	.	.	.	12G#\J	12g#\Jk	12g#/Jk	12ff#\J	12b/J
=98	=98	=98	=98	=98	=98	=98	=98	=98
[4C#/	2r	2r	2r	[4C#/	(12a\L	(12a/L	(12ee#\L	(12cc#/L
.	.	.	.	.	12g#\)	12g#/)	12gg#\)	12b/)
.	.	.	.	.	12f#\J	12f#/J	12ccc#\J	12a/J
12C#/L]	.	.	.	12C#/L]	(12e#\L	(12e#/L	(12bb\L	(12g#/L
12D/	.	.	.	12D/	12f#\)	12f#/)	12aa\)	12f#/)
12BB/J	.	.	.	12BB/J	12g#\J	12g#/J	12gg#\J	12e#/J
=99	=99	=99	=99	=99	=99	=99	=99	=99
12AA/L	2r	12r	8FFF#/	(12AA/L	8c#\	(12c#/L	6ff#\	(12f#\L
12GG#/	.	12r	.	12GG#/	.	12f#/	.	12cc#\
.	.	.	8r	.	8r	.	.	.
12FF#/J	.	12cc#\	.	12FF#/J)	.	12a/J)	12cc#\	12ff#\J)
4r	.	6ff#\L	4r	4r	8F#/	(12a/L	(12cc#\L	(12ff#\L
.	.	.	.	.	.	12g#/	12b\	12ee#\
.	.	.	.	.	8r	.	.	.
.	.	12cc#\Jk	.	.	.	12a/J)	12cc#\J)	12ff#\J)
=100	=100	=100	=100	=100	=100	=100	=100	=100
8FF#/	2r	[2dd\	8FFF#/	8FF#/	4r	(12c#/L	(12f#/L	(12a\L
.	.	.	.	.	.	12f#/	12a/	12cc#\
8r	.	.	8r	8r	.	.	.	.
.	.	.	.	.	.	12a/J)	12cc#/J)	12ff#\J)
4r	.	.	4r	4r	8F#/	(12a/L	(12cc#\L	(12ff#\L
.	.	.	.	.	.	12g#/	12b\	12ee#\
.	.	.	.	.	8r	.	.	.
.	.	.	.	.	.	12a/J)	12cc#\J)	12ff#\J)
=101	=101	=101	=101	=101	=101	=101	=101	=101
8FF#/	2r	6dd\L]	8FFF#/	8FF#/	4r	(12d/L	(12f#/L	(12b\L
.	.	.	.	.	.	12e#/	12a#/	12cc#\
8r	.	.	8r	8r	.	.	.	.
.	.	12dd\Jk	.	.	.	12f#/J)	12b/J)	12dd\J)
4r	.	(12ee\L	4r	4r	8F#/	(12g#/L	(12b/L	(12b\L
.	.	12cc#\)	.	.	.	12e#/	12a#/	12cc#\
.	.	.	.	.	8r	.	.	.
.	.	12dd\J	.	.	.	12f#/J)	12b/J)	12a\J)
=102	=102	=102	=102	=102	=102	=102	=102	=102
8FF#/	2r	[2cc#\	8FFF#/	8FF#/	4r	(12B/L	(12e#/L	(12g#\L
.	.	.	.	.	.	12e#/	12g#/	12b\
8r	.	.	8r	8r	.	.	.	.
.	.	.	.	.	.	12g#/J)	12b/J)	12ee#\J)
4r	.	.	4r	4r	8F#/	(12g#/L	(12b/L	(12ee#\L
.	.	.	.	.	.	12f#/	12a/	12dd#\
.	.	.	.	.	8r	.	.	.
.	.	.	.	.	.	12g#/J)	12b/J)	12ee#\J)
=103	=103	=103	=103	=103	=103	=103	=103	=103
8FF#/	2r	6cc#\L]	8FFF#/	8FF#/	4r	(12c#/L	(12f#/L	(12a\L
.	.	.	.	.	.	12f#/	12a/	12cc#\
8r	.	.	8r	8r	.	.	.	.
.	.	12cc#\Jk	.	.	.	12a/J)	12cc#/J)	12ff#\J)
4r	.	6ff#\L	4r	4r	8F#/	(12a/L	(12cc#\L	(12ff#\L
.	.	.	.	.	.	12g#/	12b\	12ee#\
.	.	.	.	.	8r	.	.	.
.	.	12dd\Jk	.	.	.	12a/J)	12cc#\J)	12ff#\J)
=104	=104	=104	=104	=104	=104	=104	=104	=104
8FF#/	2r	[2bT\	8FFF#/	8FF#/	4r	(12B/L	(12g#\L	(12dd\L
.	.	.	.	.	.	12d/	12b\	12b\
8r	.	.	8r	8r	.	.	.	.
.	.	.	.	.	.	12g#/J)	12dd\J)	12g#\J)
4r	.	.	4r	4r	8F#/	(12g#/L	(12dd\L	(12e#/L
.	.	.	.	.	.	12e#/	12cc#\	12g#/
.	.	.	.	.	8r	.	.	.
.	.	.	.	.	.	12f#/J)	12dd\J)	12f#/J)
=105	=105	=105	=105	=105	=105	=105	=105	=105
8FF#/	2r	12b\L]	8FFF#/	8FF#/	4r	(12g#/L	(12e#/L	(12e#/L
.	.	12cc#\	.	.	.	12e#/)	12c#/)	12g#/
8r	.	.	8r	8r	.	.	.	.
.	.	12dd\J	.	.	.	12f#/J	12b/J	12f#/J)
4r	.	12cc#\L	4r	4r	8F#/	(12c#/L	(12a/L	(12e#/L
.	.	12dd\	.	.	.	12f#/)	12b/)	12f#/
.	.	.	.	.	8r	.	.	.
.	.	12b\J	.	.	.	12e#/J	12g#/J	12g#/J)
=106	=106	=106	=106	=106	=106	=106	=106	=106
6FF#/	2r	12a/	8FFF#/	8FF#/	2r	8f#/	8f#/	8a/
!	!	! (forte)	!	!	!	!	!	!
.	.	12f#/L	.	.	.	.	.	.
.	.	.	8r	8r	.	8r	8r	8r
12C#/	.	12g#/J	.	.	.	.	.	.
12F#\L	.	12a/L	4r	4r	.	4r	4r	4r
12A\	.	12cc#/	.	.	.	.	.	.
12G#\J	.	12b/J	.	.	.	.	.	.
=107	=107	=107	=107	=107	=107	=107	=107	=107
8A\	2r	8cc#\	2r	2r	4r	4r	12r	12r
.	.	.	.	.	.	.	12f#/L	12a/L
8r	.	8r	.	.	.	.	.	.
.	.	.	.	.	.	.	12g#/J	12b/J
4r	.	4r	.	.	8f#\	8a/	(12a/L	12cc#\L
.	.	.	.	.	.	.	12cc#/)	12ee\
.	.	.	.	.	8r	8r	.	.
.	.	.	.	.	.	.	12b/J	12dd\J
=108	=108	=108	=108	=108	=108	=108	=108	=108
12r	2r	12r	2r	2r	8c#\	8g#/	8cc#\	8ee\
12C#\L	.	12e/L	.	.	.	.	.	.
.	.	.	.	.	8r	8r	8r	8r
12D\J	.	12f#/J	.	.	.	.	.	.
12E\L	.	12g#/L	.	.	4r	4r	4r	4r
12G#\	.	12b/	.	.	.	.	.	.
12F#\J	.	12a/J	.	.	.	.	.	.
=109	=109	=109	=109	=109	=109	=109	=109	=109
8G#\	2r	8b\	2r	2r	4r	4r	12r	12r
.	.	.	.	.	.	.	12e/L	12g#/L
8r	.	8r	.	.	.	.	.	.
.	.	.	.	.	.	.	12f#/J	12a/J
4r	.	4r	.	.	8e\	8g#/	12g#/L	12b\L
.	.	.	.	.	.	.	12b/	12dd\
.	.	.	.	.	8r	8r	.	.
.	.	.	.	.	.	.	12a/J	12cc#\J
=110	=110	=110	=110	=110	=110	=110	=110	=110
12r	2r	12r	2r	2r	8B/	8f#/	2bT\	2ddT\
12BB/L	.	12d/L	.	.	.	.	.	.
.	.	.	.	.	8r	8r	.	.
12C#/J	.	12e/J	.	.	.	.	.	.
12D\L	.	12f#/L	.	.	4r	4r	.	.
12F#\	.	12a/	.	.	.	.	.	.
12E#\J	.	12g#/J	.	.	.	.	.	.
=111	=111	=111	=111	=111	=111	=111	=111	=111
12F#/L	2r	12a/L	2r	2r	2r	2r	2aT/	2cc#t\
12AA/	.	12c#/	.	.	.	.	.	.
12BB/J	.	12d#/J	.	.	.	.	.	.
12C#\L	.	12e#/L	.	.	.	.	.	.
12E#\	.	12g#/	.	.	.	.	.	.
12D#\J	.	12f#/J	.	.	.	.	.	.
=112	=112	=112	=112	=112	=112	=112	=112	=112
12E#\L	2r	12g#/L	2r	2r	2r	2r	[2g#/	[2b\
12G#\	.	12b/	.	.	.	.	.	.
12F#\J	.	12a/J	.	.	.	.	.	.
12E#\L	.	12g#/L	.	.	.	.	.	.
12G#\	.	12b/	.	.	.	.	.	.
12F#\J	.	12a/J	.	.	.	.	.	.
=113	=113	=113	=113	=113	=113	=113	=113	=113
[2E#t\	2r	[2g#t/	2r	2r	2r	2r	12g#/]	12b\]
.	.	.	.	.	.	.	12e#/L	12g#/L
.	.	.	.	.	.	.	12f#/J	12a/J
.	.	.	.	.	.	.	(12g#/L	(12b/L
.	.	.	.	.	.	.	12e#/)	12g#/)
.	.	.	.	.	.	.	12f#/J	12a/J
=114	=114	=114	=114	=114	=114	=114	=114	=114
12E#\]	2r	12g#/]	2r	2r	2r	4r	4g#/	2b\
12C#\L	.	12e#/L	.	.	.	.	.	.
12D#\J	.	12f#/J	.	.	.	.	.	.
12E#\L	.	12g#/L	.	.	.	8cc#\	[4gg#\	.
12D#\	.	12f#/	.	.	.	.	.	.
.	.	.	.	.	.	8r	.	.
12E#\J	.	12g#/J	.	.	.	.	.	.
=115	=115	=115	=115	=115	=115	=115	=115	=115
12F#\L	2r	12a/L	2r	2r	2r	4r	4gg#\]	4a/
12D\	.	12f#/	.	.	.	.	.	.
12E\J	.	12g#/J	.	.	.	.	.	.
12F#\L	.	12a/L	.	.	.	8dd\	[4ff#\	[4aa\
12E\	.	12g#/	.	.	.	.	.	.
.	.	.	.	.	.	8r	.	.
12F#\J	.	12a/J	.	.	.	.	.	.
=116	=116	=116	=116	=116	=116	=116	=116	=116
12G#\L	2r	12b/L	2r	2r	2r	4r	4ff#\]	4aa\]
12E\	.	12g#/	.	.	.	.	.	.
12F#\J	.	12a/J	.	.	.	.	.	.
12G#\L	.	12b/L	.	.	.	8ee\	[4bb\	[4gg#\
12F#\	.	12a/	.	.	.	.	.	.
.	.	.	.	.	.	8r	.	.
12G#\J	.	12b/J	.	.	.	.	.	.
=117	=117	=117	=117	=117	=117	=117	=117	=117
12A\L	2r	12cc#\L	2r	2r	2r	4r	4bb\]	4gg#\]
12F#\	.	12a\	.	.	.	.	.	.
12G#\J	.	12b\J	.	.	.	.	.	.
12A\L	.	12cc#\L	.	.	.	8ff#\	[4aa\	[4ccc#\
12G#\	.	12b\	.	.	.	.	.	.
.	.	.	.	.	.	8r	.	.
12A\J	.	12cc#\J	.	.	.	.	.	.
=118	=118	=118	=118	=118	=118	=118	=118	=118
12B\L	2r	12dd\L	2r	2r	2r	2r	4aa\]	4ccc#\]
12G#\	.	12b\	.	.	.	.	.	.
12A\J	.	12cc#\J	.	.	.	.	.	.
12B\L	.	12dd\L	.	.	.	.	[4ddd\	6bb\L
12A\	.	12cc#\	.	.	.	.	.	.
12B\J	.	12dd\J	.	.	.	.	.	12aa\Jk
=119	=119	=119	=119	=119	=119	=119	=119	=119
12E#\L	2r	12g#/L	2r	2r	2r	2r	4ddd\]	[2gg#\
12G#\	.	12b/	.	.	.	.	.	.
12F#\J	.	12a/J	.	.	.	.	.	.
12E#\L	.	12g#/L	.	.	.	.	6ccc#\L	.
12D#\	.	12f#/	.	.	.	.	.	.
12E#\J	.	12g#/J	.	.	.	.	12bb\Jk	.
=120	=120	=120	=120	=120	=120	=120	=120	=120
12F#/L	2r	12a/L	2r	2r	2r	2r	[2aa\	4gg#\]
12FF#/	.	12A/	.	.	.	.	.	.
12GG#/J	.	12B/J	.	.	.	.	.	.
12AA/L	.	12c#/L	.	.	.	.	.	6ff#\L
12GG#/	.	12B/	.	.	.	.	.	.
12AA/J	.	12c#/J	.	.	.	.	.	12ee\Jk
=121	=121	=121	=121	=121	=121	=121	=121	=121
12BB/L	2r	12d/L	2r	2r	2r	2r	4aa\]	[2dd\
12GG#/	.	12B/	.	.	.	.	.	.
12AA/J	.	12c#/J	.	.	.	.	.	.
12BB/L	.	12d/L	.	.	.	.	6gg#\L	.
12AA/	.	12c#/	.	.	.	.	.	.
12BB/J	.	12d/J	.	.	.	.	12ff#\Jk	.
=122	=122	=122	=122	=122	=122	=122	=122	=122
[4C#/	2r	12G#/L	2r	2r	2r	2r	4ee#\	4dd\]
.	.	12A/	.	.	.	.	.	.
.	.	12B/J	.	.	.	.	.	.
12C#\L]	.	[4c#/	.	.	.	.	[4ee\	6cc#\L
12D\	.	.	.	.	.	.	.	.
12E\J	.	.	.	.	.	.	.	12b\Jk
=123	=123	=123	=123	=123	=123	=123	=123	=123
[4F#\	2r	12c#/L]	2r	2r	2r	2r	6ee\]	4a#/
.	.	12d/	.	.	.	.	.	.
.	.	12e/J	.	.	.	.	12cc#\	.
12F#\L]	.	[4f#/	.	.	.	.	6ff#\L	4r
12G#\	.	.	.	.	.	.	.	.
12A#\J	.	.	.	.	.	.	12cc#\Jk	.
=124	=124	=124	=124	=124	=124	=124	=124	=124
12B\L	2r	6f#/L]	2r	2r	2r	2r	(12dd\L	12r
12c#\	.	.	.	.	.	.	12cc#\)	12r
12d\J	.	12f#/Jk	.	.	.	.	12b\J	12ff#\
12c#\L	.	12e#/L	.	.	.	.	(12a\L	6ccc#\L
12d#\	.	12f#/	.	.	.	.	12b\)	.
12e#\J	.	12g#/J	.	.	.	.	12cc#\J	12gg#\Jk
=125	=125	=125	=125	=125	=125	=125	=125	=125
12F#\L	2r	6c#/L	2r	2r	2r	2r	4f#/	(12aa\L
12G#\	.	.	.	.	.	.	.	12gg#\)
12A\J	.	12cc#/Jk	.	.	.	.	.	12ff#\J
12G#\L	.	12b\L	.	.	.	.	[4b\	(12ee#\L
12A\	.	12cc#\	.	.	.	.	.	12ff#\)
12B\J	.	12dd\J	.	.	.	.	.	12gg#\J
=126	=126	=126	=126	=126	=126	=126	=126	=126
12A\L	2r	8.e#t/L	2r	2r	2r	2r	12b/L]	4cc#\
12B\	.	.	.	.	.	.	12a/	.
12c#\J	.	.	.	.	.	.	12g#/J	.
.	.	32d#/LLL	.	.	.	.	.	.
.	.	32e#/JJJ	.	.	.	.	.	.
8D\	.	12f#/L	.	.	.	.	(12a\L	[4ff#\
.	.	12g#/	.	.	.	.	12b\)	.
8r	.	.	.	.	.	.	.	.
.	.	12a/J	.	.	.	.	12cc#\J	.
=127	=127	=127	=127	=127	=127	=127	=127	=127
8BB/	2r	12b\L	2r	2r	2r	2r	(12dd\L	6ff#\L]
.	.	12cc#\	.	.	.	.	12b\)	.
8r	.	.	.	.	.	.	.	.
.	.	12dd\J	.	.	.	.	12a\J	12gg#\Jk
8C#/	.	12cc#\L	.	.	.	.	6g#t/L	6ee#t\L
.	.	12dd\	.	.	.	.	.	.
8r	.	.	.	.	.	.	.	.
.	.	12b\J	.	.	.	.	12f#/Jk	12ff#\Jk
=128	=128	=128	=128	=128	=128	=128	=128	=128
8FF#/	2r	12a/L	4r	4r	4r	12r	[2f#/	[2ff#\
.	.	12g#/	.	.	.	12r	.	.
8r	.	.	.	.	.	.	.	.
.	.	12f#/J	.	.	.	12cc#\	.	.
*accomp	*accomp	*accomp	*	*	*	*	*	*
8AA/	.	4r	8AAA/	8AA/	12r	6ff#\L	.	.
.	.	.	.	.	12r	.	.	.
8r	.	.	8r	8r	.	.	.	.
.	.	.	.	.	12f#\	12cc#\Jk	.	.
=129	=129	=129	=129	=129	=129	=129	=129	=129
8BB/	2r	2r	8BBB/	8BB/	12f#\L	(12dd\L	2f#/]	2ff#\]
.	.	.	.	.	12e\	12cc#\)	.	.
8r	.	.	8r	8r	.	.	.	.
.	.	.	.	.	12d\J	12b\J	.	.
8C#/	.	.	8CC#/	8C#/	[4e\	(12a#\L	.	.
.	.	.	.	.	.	12b\)	.	.
8r	.	.	8r	8r	.	.	.	.
.	.	.	.	.	.	12cc#\J	.	.
=130	=130	=130	=130	=130	=130	=130	=130	=130
8D\	2r	2r	8DD\	8D\	12e\L]	(12f#/L	12r	12r
.	.	.	.	.	12d\	12b/)	12r	12r
8r	.	.	8r	8r	.	.	.	.
.	.	.	.	.	12c#\J	12dd/J	12ff#\	12ff#\
8D#\	.	.	8DD#\	8D#\	8B/	(12ff#\L	6bb\L	6bb\L
.	.	.	.	.	.	12ee\)	.	.
8r	.	.	8r	8r	8r	.	.	.
.	.	.	.	.	.	12ff#\J	12ff#\Jk	12ff#\Jk
=131	=131	=131	=131	=131	=131	=131	=131	=131
8E\	2r	2r	8EE\	8E\	8B/	(12b/L	(12gg\L	(12gg\L
.	.	.	.	.	.	12a/)	12ff#\)	12ff#\)
8r	.	.	8r	8r	8r	.	.	.
.	.	.	.	.	.	12g/J	12ee\J	12ee\J
8F#\	.	.	8FF#\	8F#\	[4f#\	[4a/	(12dd#\L	(12dd#\L
.	.	.	.	.	.	.	12ee\)	12ee\)
8r	.	.	8r	8r	.	.	.	.
.	.	.	.	.	.	.	12ff#\J	12ff#\J
=132	=132	=132	=132	=132	=132	=132	=132	=132
8G\	2r	2r	8GG\	8G\	12f#\L]	12a/L]	(12b\L	(12b\L
.	.	.	.	.	12B\	12g/	12ee\)	12ee\)
8r	.	.	8r	8r	.	.	.	.
.	.	.	.	.	12e\J	12b/J	12gg\J	12gg\J
8G#\	.	.	8GG#\	8G#\	8e\	6ee\L	(12bb\L	(12bb\L
.	.	.	.	.	.	.	12aa\)	12aa\)
8r	.	.	8r	8r	8r	.	.	.
.	.	.	.	.	.	12b\Jk	12bb\J	12bb\J
=133	=133	=133	=133	=133	=133	=133	=133	=133
8A\	2r	2r	8AA\	8A\	8e\	(12cc#\L	(12ee\L	(12ee\L
.	.	.	.	.	.	12b\)	12dd\)	12dd\)
8r	.	.	8r	8r	8r	.	.	.
.	.	.	.	.	.	12a\J	12cc#\J	12cc#\J
8B\	.	.	8BB\	8B\	[4b\	(12g#/L	[4dd\	[4dd\
.	.	.	.	.	.	12a/)	.	.
8r	.	.	8r	8r	.	.	.	.
.	.	.	.	.	.	12b/J	.	.
=134	=134	=134	=134	=134	=134	=134	=134	=134
8c#\	2r	2r	8C#\	8c#\	12b\L]	(12e/L	12dd\L]	12dd\L]
.	.	.	.	.	12e\	12a/)	12cc#\	12cc#\
8r	.	.	8r	8r	.	.	.	.
.	.	.	.	.	12a\J	12cc#/J	12ee\J	12ee\J
8C#/	.	.	8CC#/	8C#/	8a\	(12ee\L	6aa\L	6aa\L
.	.	.	.	.	.	12dd\)	.	.
8r	.	.	8r	8r	8r	.	.	.
.	.	.	.	.	.	12ee\J	12ee\Jk	12ee\Jk
=135	=135	=135	=135	=135	=135	=135	=135	=135
8D\	2r	2r	8DD\	8D\	8a\	(12a/L	(12ff#\L	12ff#\L
.	.	.	.	.	.	12g#/)	12ee\)	12ee\
8r	.	.	8r	8r	8r	.	.	.
.	.	.	.	.	.	12f#/J	12dd\J	12dd\J
8E\	.	.	8EE\	8E\	[4e\	[4g#/	(12cc#\L	12cc#\L
.	.	.	.	.	.	.	12dd\)	12dd\
8r	.	.	8r	8r	.	.	.	.
.	.	.	.	.	.	.	12ee\J	12ee\J
=136	=136	=136	=136	=136	=136	=136	=136	=136
8F#\	2r	2r	8FF#\	8F#\	12e\L]	12g#/L]	6a/L	6a/L
.	.	.	.	.	12A\	12f#/	.	.
8r	.	.	8r	8r	.	.	.	.
.	.	.	.	.	12d\J	12a/J	12g#/Jk	12g#/Jk
8FF#/	.	.	8FFF#/	8FF#/	8a\	6dd\L	(12f#/L	12f#/L
.	.	.	.	.	.	.	12a/)	12a/
8r	.	.	8r	8r	8r	.	.	.
.	.	.	.	.	.	12a\Jk	12dd/J	12dd/J
=137	=137	=137	=137	=137	=137	=137	=137	=137
8GG#/	2r	2r	8GGG#/	8GG#/	8e\	(12b/L	6dd\L	6dd\L
.	.	.	.	.	.	12g#/)	.	.
8r	.	.	8r	8r	8r	.	.	.
.	.	.	.	.	.	12b/J	36cc#\LLL	36cc#\LLL
.	.	.	.	.	.	.	36b\	36b\
.	.	.	.	.	.	.	36a\JJJ	36a\JJJ
8G#\	.	.	8GG#\	8G#\	8b\	6ee\L	(12g#\L	12g#\L
.	.	.	.	.	.	.	12b\)	12b\
8r	.	.	8r	8r	8r	.	.	.
.	.	.	.	.	.	12b\Jk	12ee\J	12ee\J
=138	=138	=138	=138	=138	=138	=138	=138	=138
8A\	2r	2r	8AA\	8A\	8a\	(12cc#\L	6ee\L	6ee\L
.	.	.	.	.	.	12a\)	.	.
8r	.	.	8r	8r	8r	.	.	.
.	.	.	.	.	.	12cc#\J	36dd\LLL	36dd\LLL
.	.	.	.	.	.	.	36cc#\	36cc#\
.	.	.	.	.	.	.	36b\JJJ	36b\JJJ
8AA/	.	.	8AAA/	8AA/	8cc#\	6ff#\L	(12a\L	12a\L
.	.	.	.	.	.	.	12cc#\)	12cc#\
8r	.	.	8r	8r	8r	.	.	.
.	.	.	.	.	.	12cc#\Jk	12ff#\J	12ff#\J
=139	=139	=139	=139	=139	=139	=139	=139	=139
8BB/	2r	2r	8BBB/	8BB/	8f#\	(12dd\L	6ff#\L	6ff#\L
.	.	.	.	.	.	12b\)	.	.
8r	.	.	8r	8r	8r	.	.	.
.	.	.	.	.	.	12dd\J	36ee\LLL	36ee\LLL
.	.	.	.	.	.	.	36dd\	36dd\
.	.	.	.	.	.	.	36cc#\JJJ	36cc#\JJJ
8B\	.	.	8BB\	8B\	8dd\	6gg#\L	(12b\L	12b\L
.	.	.	.	.	.	.	12dd\)	12dd\
8r	.	.	8r	8r	8r	.	.	.
.	.	.	.	.	.	12dd\Jk	12gg#\J	12gg#\J
=140	=140	=140	=140	=140	=140	=140	=140	=140
8c#\	2r	2r	8C#\	8c#\	8cc#\	(12ee\L	6gg#\L	6gg#\L
.	.	.	.	.	.	12cc#\)	.	.
8r	.	.	8r	8r	8r	.	.	.
.	.	.	.	.	.	12ee\J	36ff#\LLL	36ff#\LLL
.	.	.	.	.	.	.	36ee\	36ee\
.	.	.	.	.	.	.	36dd\JJJ	36dd\JJJ
8C#/	.	.	8CC#/	8C#/	8ee\	6aa\L	(12cc#\L	12cc#\L
.	.	.	.	.	.	.	12ee\)	12ee\
8r	.	.	8r	8r	8r	.	.	.
.	.	.	.	.	.	12ee\Jk	12aa\J	12aa\J
=141	=141	=141	=141	=141	=141	=141	=141	=141
8D\	2r	2r	8DD\	8D\	8a\	(12ff#\L	6aa\L	6aa\L
.	.	.	.	.	.	12dd\)	.	.
8r	.	.	8r	8r	8r	.	.	.
.	.	.	.	.	.	12ff#\J	36gg\LLL	36gg\LLL
.	.	.	.	.	.	.	36ff#\	36ff#\
.	.	.	.	.	.	.	36ee\JJJ	36ee\JJJ
8d\	.	.	8D\	8d\	8f#\	6bb\L	(12dd\L	12dd\L
.	.	.	.	.	.	.	12ff#\)	12ff#\
8r	.	.	8r	8r	8r	.	.	.
.	.	.	.	.	.	12ff#\Jk	12bb\J	12bb\J
=142	=142	=142	=142	=142	=142	=142	=142	=142
8d\	2r	2r	8D\	8d\	8b\	(12gg#\L	(12ee\L	12ee\L
.	.	.	.	.	.	12ff#\)	12ff#\)	12ff#\
8r	.	.	8r	8r	8r	.	.	.
.	.	.	.	.	.	12ee\J	12gg#\J	12gg#\J
8c#\	.	.	8C#\	8c#\	8a\	6aa\L	[4aa\	[4aa\
8r	.	.	8r	8r	8r	.	.	.
.	.	.	.	.	.	12ee\Jk	.	.
=143	=143	=143	=143	=143	=143	=143	=143	=143
8d\	2r	2r	8D\	8d\	8dd\	(12ff#\L	2aa\_	2aa\_
.	.	.	.	.	.	12ee\)	.	.
8r	.	.	8r	8r	8r	.	.	.
.	.	.	.	.	.	12dd\J	.	.
8e\	.	.	8E\	8e\	8g#\	(12cc#\L	.	.
.	.	.	.	.	.	12dd\)	.	.
8r	.	.	8r	8r	8r	.	.	.
.	.	.	.	.	.	12ee\J	.	.
=144	=144	=144	=144	=144	=144	=144	=144	=144
12f#\L	2r	2r	(12F#\L	(12f#\L	(12a\L	8a/	2aa\_	2aa\_
12e\	.	.	12E\)	12e\)	12g#\)	.	.	.
.	.	.	.	.	.	8r	.	.
12d\J	.	.	12D\J	12d\J	12f#\J	.	.	.
12c#\L	.	.	(12C#\L	(12c#\L	(12e\L	8cc#\	.	.
12d#\	.	.	12D#\)	12d#\)	12f#\)	.	.	.
.	.	.	.	.	.	8r	.	.
12e\J	.	.	12E\J	12e\J	12g#\J	.	.	.
=145	=145	=145	=145	=145	=145	=145	=145	=145
4d#\	2r	2r	4D#\	4d#\	4f#\	8b\	12aa\L]	12aa\L]
.	.	.	.	.	.	.	12gg#\	12gg#\
.	.	.	.	.	.	4r	.	.
.	.	.	.	.	.	.	12ff#\J	12ff#\J
8r	.	.	8r	8r	8r	.	(12bb\L	12bb\L
.	.	.	.	.	.	.	12ccc#\)	12ccc#\
8B\	.	.	8BB\	8B\	8b\	8dd#\	.	.
.	.	.	.	.	.	.	12aa\J	12aa\J
=146	=146	=146	=146	=146	=146	=146	=146	=146
6e\L	2r	2r	6E\L	6e\L	6b\L	6ee\L	(12gg#\L	(12gg#\L
.	.	.	.	.	.	.	12ff#\)	12ff#\)
12d\Jk	.	.	12D\Jk	12d\Jk	12g#\Jk	12b\Jk	12ee\J	12ee\J
6c#\L	.	.	6C#\L	6c#\L	6a\L	12ee\L	6aa\L	6aa\L
.	.	.	.	.	.	12cc#\	.	.
12F#\Jk	.	.	12FF#\Jk	12F#\Jk	12A\Jk	12a\J	12dd\Jk	12dd\Jk
=147	=147	=147	=147	=147	=147	=147	=147	=147
6E\L	2r	2r	6EE\L	6E\L	8e\	8a/	8cc#\	8cc#\
.	.	.	.	.	8r	8r	8r	8r
12D\Jk	.	.	12DD\Jk	12D\Jk	.	.	.	.
6E/L	.	.	6EE/L	6E/L	8e\	8g#/	8bT\	8bT\
.	.	.	.	.	8r	8r	8r	8r
12EE/Jk	.	.	12EEE/Jk	12EE/Jk	.	.	.	.
=148	=148	=148	=148	=148	=148	=148	=148	=148
8AA/	2r	(12cc#\L	8AAA/	8AA/	6e\	6a/	6a\L	(12a\L
.	.	12ee\	.	.	.	.	.	12cc#\
8r	.	.	8r	8r	.	.	.	.
.	.	12aa\J)	.	.	12e\	12e/	12cc#\Jk	12ee\J)
8A\	.	(12aa\L	4r	8A\	6a\L	6a/L	(12cc#\L	(12ee\L
.	.	12gg#\	.	.	.	.	12b\	12dd\
8r	.	.	.	8r	.	.	.	.
.	.	12aa\J)	.	.	12e\Jk	12e/Jk	12cc#\J)	12ee\J)
=149	=149	=149	=149	=149	=149	=149	=149	=149
8AA/	2r	(12cc#\L	8AAA/	8AA/	[2f#\)	[2f#/)	(12e/L	(12a\L
.	.	12ee\	.	.	.	.	12a/	12cc#\
8r	.	.	8r	8r	.	.	.	.
.	.	12aa\J)	.	.	.	.	12cc#/J)	12ee\J)
8A\	.	(12aa\L	4r	8A\	.	.	(12cc#\L	(12ee\L
.	.	12gg#\	.	.	.	.	12b\	12dd\
8r	.	.	.	8r	.	.	.	.
.	.	12aa\J)	.	.	.	.	12cc#\J)	12ee\J)
=150	=150	=150	=150	=150	=150	=150	=150	=150
8AA/	2r	(12dd\L	8AAA/	8AA/	6f#\L]	6f#/L]	(12f#/L	(12a\L
.	.	12ee\	.	.	.	.	12g/	12cc#\
8r	.	.	8r	8r	.	.	.	.
.	.	12ff#\J)	.	.	12f#\Jk	12f#/Jk	12a/J)	12dd\J)
8A\	.	(12dd\L	4r	8A\	(12g\L	(12g/L	(12b\L	(12dd\L
.	.	12ee\	.	.	12e\)	12e/)	12cc#\	12cc#\
8r	.	.	.	8r	.	.	.	.
.	.	12cc#\J)	.	.	12f#\J	12f#/J	12a\J)	12dd\J)
=151	=151	=151	=151	=151	=151	=151	=151	=151
8AA/	2r	(12b\L	8AAA/	8AA/	[2e\)	[2e/)	(12d/L	(12g#\L
.	.	12dd\	.	.	.	.	12g#/	12b\
8r	.	.	8r	8r	.	.	.	.
.	.	12gg#\J)	.	.	.	.	12b/J)	12dd\J)
8A\	.	(12gg#\L	4r	8A\	.	.	(12b/L	(12dd\L
.	.	12ff#\	.	.	.	.	12a/	12cc#\
8r	.	.	.	8r	.	.	.	.
.	.	12gg#\J)	.	.	.	.	12b/J)	12dd\J)
=152	=152	=152	=152	=152	=152	=152	=152	=152
8AA/	2r	(12cc#\L	8AAA/	8AA/	6e\L]	6e/L]	(12e/L	(12a\L
.	.	12ee\	.	.	.	.	12a/	12cc#\
8r	.	.	8r	8r	.	.	.	.
.	.	12aa\J)	.	.	12e\Jk	12e/Jk	12cc#/J)	12ee\J)
8A\	.	(12aa\L	4r	8A\	6a\L	6a/L	(12cc#\L	(12ee\L
.	.	12gg#\	.	.	.	.	12b\	12dd\
8r	.	.	.	8r	.	.	.	.
.	.	12aa\J)	.	.	12f#\Jk	12f#/Jk	12cc#\J)	12ee\J)
=153	=153	=153	=153	=153	=153	=153	=153	=153
8AA/	2r	(12ff#\L	8AAA/	8AA/	[2d\)	[2d/)	(12d/L	(12b\L
.	.	12dd\	.	.	.	.	12f#/	12dd\
8r	.	.	8r	8r	.	.	.	.
.	.	12b\J)	.	.	.	.	12b/J)	12ff#\J)
8A\	.	(12g#/L	4r	8A\	.	.	(12b/L	(12ff#\L
.	.	12b/	.	.	.	.	12g#/	12ee\
8r	.	.	.	8r	.	.	.	.
.	.	12a/J)	.	.	.	.	12a/J)	12ff#\J)
=154	=154	=154	=154	=154	=154	=154	=154	=154
8AA/	2r	(12g#/L	8AAA/	8AA/	12d\L]	12d/L]	(12b/L	(12g#/L
.	.	12b/)	.	.	12e\	12e/	12g#/	12e/)
8r	.	.	8r	8r	.	.	.	.
.	.	12a/J	.	.	12f#\J	12f#/J	12a/J)	12dd/J
8A\	.	(12g#/L	4r	8A\	(12e\L	(12e/L	(12e/L	(12cc#\L
.	.	12a/)	.	.	12f#\)	12f#/)	12a/	12dd\)
8r	.	.	.	8r	.	.	.	.
.	.	12b/J	.	.	12d\J	12d/J	12g#/J)	12b\J
=155	=155	=155	=155	=155	=155	=155	=155	=155
!	!	! (forte)	!	!	!	!	!	!
12AA/	2r	12cc#\	8AAA/	8AA/	8c#\	8c#/	8a/	8a/
12C#\L	.	12a/L	.	.	.	.	.	.
.	.	.	8r	8r	8r	8r	8r	8r
12E\J	.	12b/J	.	.	.	.	.	.
12A\L	.	12cc#\L	4r	4r	4r	4r	4r	4r
12c#\	.	12ee\	.	.	.	.	.	.
12B\J	.	12dd\J	.	.	.	.	.	.
=156	=156	=156	=156	=156	=156	=156	=156	=156
12c#\L	2r	12ee\L	2r	2r	2r	2r	2r	2r
12A\	.	12cc#\	.	.	.	.	.	.
12B\J	.	12dd\J	.	.	.	.	.	.
12c#\L	.	12ee\L	.	.	.	.	.	.
12e\	.	12gg\	.	.	.	.	.	.
12d#\J	.	12ff#\J	.	.	.	.	.	.
=157	=157	=157	=157	=157	=157	=157	=157	=157
[2eT\	2r	[2ggT\	2r	2r	12r	12r	12r	12r
.	.	.	.	.	12r	12r	12r	12r
.	.	.	.	.	12b\	12b\	12b\	12b\
.	.	.	.	.	6ee\L	6ee\L	6ee\L	6ee\L
.	.	.	.	.	12b\Jk	12b\Jk	12b\Jk	12b\Jk
=158	=158	=158	=158	=158	=158	=158	=158	=158
2eTz\_	2r	2ggTz\_	2r	2r	(12cc\L	(12cc\L	(12cc\L	12cc\L
.	.	.	.	.	12b\)	12b\)	12b\)	12b\
.	.	.	.	.	12a\J	12a\J	12a\J	12a\J
.	.	.	.	.	(12g\L	(12g/L	(12g/L	12g/L
.	.	.	.	.	12a\)	12a/)	12a/)	12a/
.	.	.	.	.	12b\J	12b/J	12b/J	12b/J
=159	=159	=159	=159	=159	=159	=159	=159	=159
12e\]	2r	12gg\]	2r	2r	8e\	8e/	8e/	8e/
12E\L	.	12g/L	.	.	.	.	.	.
.	.	.	.	.	8r	8r	8r	8r
12F#\J	.	12a/J	.	.	.	.	.	.
12G\L	.	12b\L	.	.	4r	4r	4r	4r
12B\	.	12dd\	.	.	.	.	.	.
12A\J	.	12cc#\J	.	.	.	.	.	.
=160	=160	=160	=160	=160	=160	=160	=160	=160
12B\L	2r	12dd\L	2r	2r	2r	2r	2r	2r
12G\	.	12b\	.	.	.	.	.	.
12A\J	.	12cc#\J	.	.	.	.	.	.
12B\L	.	12dd\L	.	.	.	.	.	.
12d\	.	12ff#\	.	.	.	.	.	.
12c#\J	.	12ee\J	.	.	.	.	.	.
=161	=161	=161	=161	=161	=161	=161	=161	=161
[2dT\	2r	[2ff#t\	2r	2r	12r	12r	12r	12r
.	.	.	.	.	12r	12r	12r	12r
.	.	.	.	.	12f#\	12f#/	12f#/	12f#/
.	.	.	.	.	6b\L	6b/L	6b/L	6b/L
.	.	.	.	.	12f#\Jk	12f#/Jk	12f#/Jk	12f#/Jk
=162	=162	=162	=162	=162	=162	=162	=162	=162
2dTz\_	2r	2ff#tz\_	2r	2r	(12g\L	(12g/L	(12g/L	(12g/L
.	.	.	.	.	12f#\)	12f#/)	12f#/)	12f#/)
.	.	.	.	.	12e\J	12e/J	12e/J	12e/J
.	.	.	.	.	(12d\L	(12d/L	(12d/L	(12d/L
.	.	.	.	.	12e\)	12e/)	12e/)	12e/)
.	.	.	.	.	12f#\J	12f#/J	12f#/J	12f#/J
=163	=163	=163	=163	=163	=163	=163	=163	=163
8d\]	2r	6ff#\]	2r	2r	8B/	8B/	8B/	8b\
8r	.	.	.	.	8r	8r	8r	8r
.	.	12ff#\	.	.	.	.	.	.
4r	.	6bb\L	.	.	4r	4r	4r	4r
.	.	12ff#\Jk	.	.	.	.	.	.
=164	=164	=164	=164	=164	=164	=164	=164	=164
12r	2r	12gg/L	2r	2r	2r	2r	2r	2r
12r	.	12ff#/	.	.	.	.	.	.
12f#\	.	12ee/J	.	.	.	.	.	.
6b\L	.	12dd/L	.	.	.	.	.	.
.	.	12ee/	.	.	.	.	.	.
12f#\Jk	.	12ff#/J	.	.	.	.	.	.
=165	=165	=165	=165	=165	=165	=165	=165	=165
12g\L	2r	6b/L	2r	2r	2r	2r	2r	2r
12f#\	.	.	.	.	.	.	.	.
12e\J	.	12f#/Jk	.	.	.	.	.	.
12d\L	.	12b/L	.	.	.	.	.	.
12e\	.	12dd/	.	.	.	.	.	.
12f#\J	.	12cc#/J	.	.	.	.	.	.
=166	=166	=166	=166	=166	=166	=166	=166	=166
6B\L	2r	12dd\L	2r	2r	2r	2r	2r	2r
.	.	12b\	.	.	.	.	.	.
12F#\Jk	.	12cc#\J	.	.	.	.	.	.
12B\L	.	12dd\L	.	.	.	.	.	.
12d\	.	12ff#\	.	.	.	.	.	.
12c#\J	.	12ee\J	.	.	.	.	.	.
=167	=167	=167	=167	=167	=167	=167	=167	=167
12d\L	2r	6ff#\L	2r	2r	2r	2r	2r	2r
12B\	.	.	.	.	.	.	.	.
12c#\J	.	12b\Jk	.	.	.	.	.	.
12d\L	.	6ff#\L	.	.	.	.	.	.
12f#\	.	.	.	.	.	.	.	.
12e\J	.	12cc#\Jk	.	.	.	.	.	.
=168	=168	=168	=168	=168	=168	=168	=168	=168
6f#\L	2r	12dd\L	2r	2r	2r	2r	2r	2r
.	.	12cc#\	.	.	.	.	.	.
12B\Jk	.	12b\J	.	.	.	.	.	.
6f#\L	.	12a#\L	.	.	.	.	.	.
.	.	12b\	.	.	.	.	.	.
12c#\Jk	.	12cc#\J	.	.	.	.	.	.
=169	=169	=169	=169	=169	=169	=169	=169	=169
12d\L	2r	4f#/	2r	2r	2r	2r	2r	2r
12c#\	.	.	.	.	.	.	.	.
12B\J	.	.	.	.	.	.	.	.
12A#\L	.	[4ee\	.	.	.	.	.	.
12B\	.	.	.	.	.	.	.	.
12c#\J	.	.	.	.	.	.	.	.
=170	=170	=170	=170	=170	=170	=170	=170	=170
4F#\	2r	12ee\L]	2r	2r	2r	2r	2r	2r
.	.	12dd\	.	.	.	.	.	.
.	.	12cc#\J	.	.	.	.	.	.
[4e\	.	12b\L	.	.	.	.	.	.
.	.	12cc#\	.	.	.	.	.	.
.	.	12a#\J	.	.	.	.	.	.
=171	=171	=171	=171	=171	=171	=171	=171	=171
12e\L]	2r	12gg\L	2r	2r	2r	2r	2r	2r
12d\	.	12ff#\	.	.	.	.	.	.
12c#\J	.	12ee\J	.	.	.	.	.	.
12B\L	.	12dd\L	.	.	.	.	.	.
12c#\	.	12ee\	.	.	.	.	.	.
12A#\J	.	12cc#\J	.	.	.	.	.	.
=172	=172	=172	=172	=172	=172	=172	=172	=172
12g\L	2r	6b/L	2r	2r	2r	2r	2r	2r
12f#\	.	.	.	.	.	.	.	.
12e\J	.	12f#/Jk	.	.	.	.	.	.
12d\L	.	6b/L	.	.	.	.	.	.
12e\	.	.	.	.	.	.	.	.
12c#\J	.	12f#/Jk	.	.	.	.	.	.
=173	=173	=173	=173	=173	=173	=173	=173	=173
6B\L	2r	12g/L	2r	2r	2r	2r	2r	2r
.	.	12f#/	.	.	.	.	.	.
12F#\Jk	.	12e/J	.	.	.	.	.	.
6B\L	.	12d/L	.	.	.	.	.	.
.	.	12e/	.	.	.	.	.	.
12F#\Jk	.	12f#/J	.	.	.	.	.	.
=174	=174	=174	=174	=174	=174	=174	=174	=174
12G\L	2r	6B/L	2r	2r	2r	2r	2r	2r
12F#\	.	.	.	.	.	.	.	.
12E\J	.	12F#/Jk	.	.	.	.	.	.
12D\L	.	12B/L	.	.	.	.	.	.
12E\	.	12d/	.	.	.	.	.	.
12F#\J	.	12c#/J	.	.	.	.	.	.
=175	=175	=175	=175	=175	=175	=175	=175	=175
6BB/L	2r	12d/L	2r	2r	2r	2r	2r	2r
.	.	12B/	.	.	.	.	.	.
12FF#/Jk	.	12c#/J	.	.	.	.	.	.
12BB/L	.	12d/L	.	.	.	.	.	.
12D/	.	12f#/	.	.	.	.	.	.
12C#/J	.	12e/J	.	.	.	.	.	.
=176	=176	=176	=176	=176	=176	=176	=176	=176
12D/L	2r	12f#/L	2r	2r	2r	2r	2r	2r
12BB/	.	12d/	.	.	.	.	.	.
12C#/J	.	12e/J	.	.	.	.	.	.
12D\L	.	12f#/L	.	.	.	.	.	.
12F#\	.	12a/	.	.	.	.	.	.
12E#\J	.	12g#/J	.	.	.	.	.	.
=177	=177	=177	=177	=177	=177	=177	=177	=177
[2F#t\	2r	[2aT/	2r	2r	4r	12r	12r	12r
.	.	.	.	.	.	12r	12r	12r
.	.	.	.	.	.	12f#/	12a/	12cc#\
.	.	.	.	.	4F#/	6a/L	6cc#/L	6ff#\L
.	.	.	.	.	.	12f#/Jk	12a/Jk	12cc#\Jk
=178	=178	=178	=178	=178	=178	=178	=178	=178
12F#\]	2r	12a/]	4r	4r	4B/	4B/	4f#/	4dd#\
12A\L	.	12cc\L	.	.	.	.	.	.
12G\J	.	12b\J	.	.	.	.	.	.
12F#\L	.	12a/L	4BBB/	4BB/	4r	4r	4r	4r
12E\	.	12g/	.	.	.	.	.	.
12D#\J	.	12f#/J	.	.	.	.	.	.
=179	=179	=179	=179	=179	=179	=179	=179	=179
[2ET\	2r	[2gT/	4EEE/	4EE/	4r	12r	12r	12r
.	.	.	.	.	.	12r	12r	12r
.	.	.	.	.	.	12e/	12g/	12b\
.	.	.	4r	4r	4E/	6g/L	6b/L	6ee\L
.	.	.	.	.	.	12e/Jk	12g/Jk	12b\Jk
=180	=180	=180	=180	=180	=180	=180	=180	=180
12E\]	2r	12g/]	4r	4r	4A/	4A/	4e/	4cc#\
12G\L	.	12b/L	.	.	.	.	.	.
12F#\J	.	12a/J	.	.	.	.	.	.
12E\L	.	12g/L	4AAA/	4AA/	4r	4r	4r	4r
12D\	.	12f#/	.	.	.	.	.	.
12C#\J	.	12e/J	.	.	.	.	.	.
=181	=181	=181	=181	=181	=181	=181	=181	=181
[2DT\	2r	[2f#t/	4DDD/	4DD/	12r	12r	12r	12r
.	.	.	.	.	12r	12r	12r	12r
.	.	.	.	.	12a\	12a/	12a/	12a/
.	.	.	4r	4r	6dd\L	6dd\L	6dd\L	6dd\L
.	.	.	.	.	12a\Jk	12a\Jk	12a\Jk	12a\Jk
=182	=182	=182	=182	=182	=182	=182	=182	=182
2DTz\_	2r	2f#tz/_	2r	2r	(12b\L	(12b/L	(12b/L	(12b/L
.	.	.	.	.	12a\)	12a/)	12a/)	12a/)
.	.	.	.	.	12g\J	12g/J	12g/J	12g/J
.	.	.	.	.	(12f#\L	(12f#/L	(12f#/L	(12f#/L
.	.	.	.	.	12g\)	12g/)	12g/)	12g/)
.	.	.	.	.	12a\J	12a/J	12a/J	12a/J
=183	=183	=183	=183	=183	=183	=183	=183	=183
12D\]	2r	12f#/]	2r	2r	4d\	4d/	4d/	4d/
12FF#/L	.	12d/L	.	.	.	.	.	.
12AA/J	.	12e/J	.	.	.	.	.	.
12D\L	.	12f#/L	.	.	4r	4r	4r	4r
12F#\	.	12a/	.	.	.	.	.	.
12E\J	.	12g/J	.	.	.	.	.	.
=184	=184	=184	=184	=184	=184	=184	=184	=184
12F#\L	2r	12a/L	2r	2r	2r	2r	2r	2r
12D\	.	12f#/	.	.	.	.	.	.
12E\J	.	12g/J	.	.	.	.	.	.
12F#\L	.	12a\L	.	.	.	.	.	.
12A\	.	12cc#\	.	.	.	.	.	.
12G#\J	.	12b\J	.	.	.	.	.	.
=185	=185	=185	=185	=185	=185	=185	=185	=185
[2AT\	2r	[2cc#T\	2r	2r	12r	12r	12r	2r
.	.	.	.	.	12r	12r	12r	.
.	.	.	.	.	12e\	12e/	12e/	.
.	.	.	.	.	6a\L	6a/L	6a/L	.
.	.	.	.	.	12e\Jk	12e/Jk	12e/Jk	.
=186	=186	=186	=186	=186	=186	=186	=186	=186
2ATz\_	2r	2cc#Tz\_	2r	2r	(12f#\L	(12f#/L	(12f#/L	2r
.	.	.	.	.	12e\)	12e/)	12e/)	.
.	.	.	.	.	12d\J	12d/J	12d/J	.
.	.	.	.	.	(12c#\L	(12c#/L	(12c#/L	.
.	.	.	.	.	12d\)	12d/)	12d/)	.
.	.	.	.	.	12e\J	12e/J	12e/J	.
=187	=187	=187	=187	=187	=187	=187	=187	=187
12A\]	2r	12cc#\]	2r	2r	4A/	4A/	4A/	2r
12C#\L	.	12a\L	.	.	.	.	.	.
12E\J	.	12b\J	.	.	.	.	.	.
12A\L	.	12cc#\L	.	.	4r	4r	4r	.
12c#\	.	12ee\	.	.	.	.	.	.
12B\J	.	12dd\J	.	.	.	.	.	.
=188	=188	=188	=188	=188	=188	=188	=188	=188
12c#\L	2r	12ee\L	2r	2r	2r	2r	2r	2r
12A\	.	12cc#\	.	.	.	.	.	.
12B\J	.	12dd\J	.	.	.	.	.	.
12c#\L	.	12ee\L	.	.	.	.	.	.
12e\	.	12gg\	.	.	.	.	.	.
12d\J	.	12ff#\J	.	.	.	.	.	.
=189	=189	=189	=189	=189	=189	=189	=189	=189
[2eT\	2r	[2ggT\	2r	2r	12r	12r	(12cc#\L	(12ee\L
.	.	.	.	.	12r	12r	12a\)	12cc#\)
.	.	.	.	.	12e\	12e/	12b\J	12dd\J
.	.	.	.	.	6a\L	6a/L	(12cc#\L	(12ee\L
.	.	.	.	.	.	.	12a\)	12cc#\)
.	.	.	.	.	12e\Jk	12e/Jk	12b\J	12dd\J
=190	=190	=190	=190	=190	=190	=190	=190	=190
12e\]	2r	12gg\]	2r	2r	[2c#\	[2c#/	[2cc#\	[2ee\
12c#\L	.	12ee\L	.	.	.	.	.	.
12d\J	.	12ff#\J	.	.	.	.	.	.
12e\L	.	12gg\L	.	.	.	.	.	.
12c#\	.	12ee\	.	.	.	.	.	.
12d\J	.	12ff#\J	.	.	.	.	.	.
=191	=191	=191	=191	=191	=191	=191	=191	=191
[2eT\	2r	[2ggT\	2r	2r	12c#\]	12c#/]	12cc#\]	12ee\]
.	.	.	.	.	12c#\L	12c#/L	12ee\L	12gg\L
.	.	.	.	.	12d\J	12d/J	12dd\J	12ff#\J
.	.	.	.	.	(12e\L	(12e/L	(12cc#\L	(12ee\L
.	.	.	.	.	12c#\)	12c#/)	12ee\)	12gg\)
.	.	.	.	.	12d\J	12d/J	12dd\J	12ff#\J
=192	=192	=192	=192	=192	=192	=192	=192	=192
12e\L]	2r	12gg\L]	2r	4r	8A/	8A/	8cc#\	8ee\
12g\	.	12bb\	.	.	.	.	.	.
.	.	.	.	.	8r	8r	8r	8r
12f#\J	.	12aa\J	.	.	.	.	.	.
12e\L	.	12gg\L	.	8r	4r	4r	4r	4r
12d\	.	12ff#\	.	.	.	.	.	.
.	.	.	.	8AA/	.	.	.	.
12c#\J	.	12ee\J	.	.	.	.	.	.
=193	=193	=193	=193	=193	=193	=193	=193	=193
12d\L	2r	12ff#\L	2r	8D/	2r	2r	4r	12r
12f#\	.	12aa\	.	.	.	.	.	12r
.	.	.	.	8r	.	.	.	.
12e\J	.	12gg\J	.	.	.	.	.	12ff#\
12d\L	.	12ff#\L	.	4r	.	.	12r	[4bb\
12c#\	.	12ee\	.	.	.	.	12r	.
12B\J	.	12dd\J	.	.	.	.	12b\	.
=194	=194	=194	=194	=194	=194	=194	=194	=194
12c#\L	2r	12ee\L	2r	8C#/	2r	2r	[4ee\	6bb\L]
12e\	.	12gg\	.	.	.	.	.	.
.	.	.	.	8r	.	.	.	.
12d\J	.	12ff#\J	.	.	.	.	.	12ee\Jk
12c#\L	.	12ee\L	.	4r	.	.	6ee\L]	[4aa\
12B\	.	12dd\	.	.	.	.	.	.
12A\J	.	12cc#\J	.	.	.	.	12a\Jk	.
=195	=195	=195	=195	=195	=195	=195	=195	=195
12B\L	2r	12dd\L	2r	8BB/	2r	2r	[4dd\	6aa\L]
12d\	.	12ff#\	.	.	.	.	.	.
.	.	.	.	8r	.	.	.	.
12c#\J	.	12ee\J	.	.	.	.	.	12bb\Jk
12B\L	.	12dd\L	.	4r	.	.	6dd\L]	[4gg#\
12A\	.	12cc#\	.	.	.	.	.	.
12G#\J	.	12b\J	.	.	.	.	12ee\Jk	.
=196	=196	=196	=196	=196	=196	=196	=196	=196
12A\L	2r	12cc#\L	2r	8AA/	2r	2r	[4cc#\	6gg#\L]
12c#\	.	12ee\	.	.	.	.	.	.
.	.	.	.	8r	.	.	.	.
12B\J	.	12dd\J	.	.	.	.	.	12aa\Jk
12A\L	.	12cc#\L	.	4r	.	.	6cc#\L]	6ff#\L
12B\	.	12dd\	.	.	.	.	.	.
12A\J	.	12cc#\J	.	.	.	.	12cc#\Jk	12gg#\Jk
=197	=197	=197	=197	=197	=197	=197	=197	=197
12G#\L	2r	12b\L	2r	8GG#/	2r	2r	(12dd\L	6ee#\L
12A\	.	12a\	.	.	.	.	12cc#\)	.
.	.	.	.	8r	.	.	.	.
12G#\J	.	12b\J	.	.	.	.	12b\J	12ff#\Jk
12F#\L	.	12cc#\L	.	8FF#/	.	.	(12a/L	6ff#T\L
12E#\	.	24dd\LL	.	.	.	.	12g#/)	.
.	.	24cc#\	.	8r	.	.	.	.
12F#\J	.	24b\	.	.	.	.	12f#/J	24ee#\LLL
.	.	24a\JJ	.	.	.	.	.	24ff#\JJJ
=198	=198	=198	=198	=198	=198	=198	=198	=198
12C#\L	2r	6g#/L	[2CC#/	8C#/	8e#\	8b\	6e#/L	[4gg#\
12E#\	.	.	.	.	.	.	.	.
.	.	.	.	8r	8r	8r	.	.
12D#\J	.	12f#/Jk	.	.	.	.	12cc#/Jk	.
12C#\L	.	12e#/L	.	4r	4r	4r	[4gg#\	6gg#\L]
12D#\	.	12g#/	.	.	.	.	.	.
12E#\J	.	12b/J	.	.	.	.	.	12cc#\Jk
=199	=199	=199	=199	=199	=199	=199	=199	=199
12F#\L	2r	12a\L	2CC#/_	8c#\	8c#\	8a/	12gg#\L]	[2aa\
12A\	.	12cc#\	.	.	.	.	12ff#\	.
.	.	.	.	8r	8r	8r	.	.
12G#\J	.	12b\J	.	.	.	.	12ee#\J	.
12F#\L	.	12a\L	.	4r	4r	4r	(12ff#\L	.
12E#\	.	12cc#\	.	.	.	.	12gg#\)	.
12F#\J	.	12ff#\J	.	.	.	.	12aa\J	.
=200	=200	=200	=200	=200	=200	=200	=200	=200
12G#\L	2r	12b\L	2CC#/_	8C#/	8b\	8ee#\	[2bb\	12aa\L]
12B\	.	12dd\	.	.	.	.	.	12gg#\
.	.	.	.	8r	8r	8r	.	.
12A\J	.	12cc#\J	.	.	.	.	.	12ff#\J
12G#\L	.	12b\L	.	4r	4r	4r	.	12gg#\L
12F#\	.	12ff#\	.	.	.	.	.	12aa\
12G#\J	.	12ee#\J	.	.	.	.	.	12bb\J
=201	=201	=201	=201	=201	=201	=201	=201	=201
12A\L	2r	12ff#\L	2CC#/_	8c#\	8a\	8ff#\	12bb\L]	[2ccc#\
12c#\	.	12a\	.	.	.	.	12aa\	.
.	.	.	.	8r	8r	8r	.	.
12B\J	.	12b\J	.	.	.	.	12gg#\J	.
12A\L	.	12cc#\L	.	4r	4r	4r	12aa\L	.
12G#\	.	12dd\	.	.	.	.	12bb\	.
12F#\J	.	12ee\J	.	.	.	.	12ccc#\J	.
=202	=202	=202	=202	=202	=202	=202	=202	=202
12B\L	2r	12dd\L	2CC#/_	8C#/	8f#\	8ff#\	[2ddd\	12ccc#\L]
12d\	.	12ff#\	.	.	.	.	.	12bb\
.	.	.	.	8r	8r	8r	.	.
12c#\J	.	12ee\J	.	.	.	.	.	12aa\J
12B\L	.	12dd\L	.	4r	4r	4r	.	12bb\L
12A\	.	12ff#\	.	.	.	.	.	12ccc#\
12G#\J	.	12bb\J	.	.	.	.	.	12ddd\J
=203	=203	=203	=203	=203	=203	=203	=203	=203
8c#\	2r	12gg#\L	8CC#/]	8c#\	8c#\	8gg#\	12ddd\L]	4ee#\
.	.	12ee#\	.	.	.	.	12ccc#\	.
8r	.	.	8r	8r	8r	8r	.	.
.	.	12ff#\J	.	.	.	.	12bb\J	.
8C#/	.	[4gg\	4r	8C#/	4r	4r	(12ccc#\L	[4ee\
.	.	.	.	.	.	.	12ddd\)	.
8r	.	.	.	8r	.	.	.	.
.	.	.	.	.	.	.	12eee\J	.
=204	=204	=204	=204	=204	=204	=204	=204	=204
8F#\	2r	12gg\L]	2r	8F#\	2r	2r	4aa#\	12ee\L]
.	.	12ff#\	.	.	.	.	.	12dd\
8r	.	.	.	8r	.	.	.	.
.	.	12ee\J	.	.	.	.	.	12cc#\J
4r	.	12dd\L	.	4r	.	.	[4bb\	12dd\L
.	.	12cc#\	.	.	.	.	.	12ee\
.	.	12b\J	.	.	.	.	.	12ff#\J
=205	=205	=205	=205	=205	=205	=205	=205	=205
8F#\	2r	12cc#\L	2r	8F#\	2r	2r	12bb\L]	4cc#\
.	.	12ff#\	.	.	.	.	12aa\	.
8r	.	.	.	8r	.	.	.	.
.	.	12ee\J	.	.	.	.	12gg#\J	.
8FF#/	.	12dd#\L	.	8FF#/	.	.	12aa\L	[4cc\
.	.	12ee\	.	.	.	.	12bb\	.
8r	.	.	.	8r	.	.	.	.
.	.	12ff#\J	.	.	.	.	12ccc\J	.
=206	=206	=206	=206	=206	=206	=206	=206	=206
8GG/	2r	12b\L	2r	8GG/	2r	2r	4dd#\	12cc\L]
.	.	12ee\	.	.	.	.	.	12b\
8r	.	.	.	8r	.	.	.	.
.	.	12ff#\J	.	.	.	.	.	12a\J
4r	.	12gg\L	.	4r	.	.	[4ee\	12g/L
.	.	12aa\	.	.	.	.	.	12f#/
.	.	12bb\J	.	.	.	.	.	12e/J
=207	=207	=207	=207	=207	=207	=207	=207	=207
8AA/	2r	12ccc\L	2r	8AA/	2r	2r	12ee\L]	[2f#/
.	.	12dd#\	.	.	.	.	12ff#\	.
8r	.	.	.	8r	.	.	.	.
.	.	12ee\J	.	.	.	.	12ee\J	.
8BB/	.	12b\L	.	8BB/	.	.	12dd#\L	.
.	.	12ee\	.	.	.	.	12cc#\	.
8r	.	.	.	8r	.	.	.	.
.	.	12dd#\J	.	.	.	.	12b\J	.
=208	=208	=208	=208	=208	=208	=208	=208	=208
8EE/	2r	12ee\L	2r	8EE/	2r	2r	[2gg\	12f#/L]
.	.	12b\	.	.	.	.	.	12e/
8r	.	.	.	8r	.	.	.	.
.	.	12a\J	.	.	.	.	.	12f#/J
4r	.	12g/L	.	4r	.	.	.	12g/L
.	.	12f#/	.	.	.	.	.	12a/
.	.	12g/J	.	.	.	.	.	12b/J
=209	=209	=209	=209	=209	=209	=209	=209	=209
8AA/	2r	12e/L	2r	8AA/	2r	2r	12gg\L]	[2cc\
.	.	12a/	.	.	.	.	12f#\	.
8r	.	.	.	8r	.	.	.	.
.	.	12g/J	.	.	.	.	12g\J	.
8D/	.	12f#/L	.	8D/	.	.	12a\L	.
.	.	12g/	.	.	.	.	12b\	.
8r	.	.	.	8r	.	.	.	.
.	.	12a/J	.	.	.	.	12cc\J	.
=210	=210	=210	=210	=210	=210	=210	=210	=210
8BB/	2r	12d/L	2r	8BB/	2r	2r	[2dd\	12cc\L]
.	.	12g/	.	.	.	.	.	12b\
8r	.	.	.	8r	.	.	.	.
.	.	12a/J	.	.	.	.	.	12cc\J
8GG/	.	12b\L	.	8GG/	.	.	.	12dd\L
.	.	12cc\	.	.	.	.	.	12ee\
8r	.	.	.	8r	.	.	.	.
.	.	12a\J	.	.	.	.	.	12ff#\J
=211	=211	=211	=211	=211	=211	=211	=211	=211
12EE/L	2r	12g/L	2r	8EE/	2r	2r	12dd\L]	[4gg\
12FF#/	.	12a/	.	.	.	.	12cc\	.
.	.	.	.	8r	.	.	.	.
12GG/J	.	12b/J	.	.	.	.	12b\J	.
12AA/L	.	6e/L	.	8AA/	.	.	[4cc\	12gg\L]
12BB/	.	.	.	.	.	.	.	12aa\
.	.	.	.	8r	.	.	.	.
12C/J	.	12ee/Jk	.	.	.	.	.	12gg\J
=212	=212	=212	=212	=212	=212	=212	=212	=212
8DD/	2r	12aa\L	2r	8DD/	2r	2r	12cc\L]	4ff#\
.	.	12dd\	.	.	.	.	12b\	.
8r	.	.	.	8r	.	.	.	.
.	.	12cc\J	.	.	.	.	12a\J	.
8GG/	.	12b/L	.	8GG/	.	.	(12b\L	[4gg\
.	.	12a/	.	.	.	.	12cc\)	.
8r	.	.	.	8r	.	.	.	.
.	.	12g/J	.	.	.	.	12b\J	.
=213	=213	=213	=213	=213	=213	=213	=213	=213
8D/	2r	[4a/	2r	8D/	2r	2r	4a/	12gg\L]
.	.	.	.	.	.	.	.	12ff#\
8r	.	.	.	8r	.	.	.	.
.	.	.	.	.	.	.	.	12ee\J
8C/	.	24a/LL]	.	8C/	.	.	[4aa\	12ff#\L
.	.	24g/	.	.	.	.	.	.
.	.	24f#/	.	.	.	.	.	12gg\
8r	.	24e/	.	8r	.	.	.	.
.	.	24d#/	.	.	.	.	.	12ee\J
.	.	24e/JJ	.	.	.	.	.	.
=214	=214	=214	=214	=214	=214	=214	=214	=214
[2BB/	2r	12f#/L	2r	[2BB/	2r	2r	12aa\L]	4dd#\
.	.	12b/	.	.	.	.	12gg\	.
.	.	12a/J	.	.	.	.	12ff#\J	.
.	.	12g/L	.	.	.	.	(12gg\L	[4ee\
.	.	12f#/	.	.	.	.	12aa\)	.
.	.	12e/J	.	.	.	.	12gg\J	.
=215	=215	=215	=215	=215	=215	=215	=215	=215
6BB/]	2r	12f#/L	2r	6BB/]	2r	2r	[2ff#\	12ee\L]
.	.	12b/	.	.	.	.	.	12dd\
12F#\	.	12a#/J	.	12F#\	.	.	.	12cc#\J
6B\L	.	12b\L	.	6B\L	.	.	.	12dd\L
.	.	12ff#\	.	.	.	.	.	12ee\
12F#\Jk	.	12a#\J	.	12F#\Jk	.	.	.	12cc#\J
=216	=216	=216	=216	=216	=216	=216	=216	=216
6G\L	2r	8b\	2r	6G\L	2r	2r	12ff#\L]	[4b\
.	.	.	.	.	.	.	12ee\	.
.	.	8r	.	.	.	.	.	.
12F#\Jk	.	.	.	12F#\Jk	.	.	12dd\J	.
6G\L	.	4r	.	6G\L	.	.	[4ee\	12b\L]
.	.	.	.	.	.	.	.	12cc#\
12E\Jk	.	.	.	12E\Jk	.	.	.	12b\J
=217	=217	=217	=217	=217	=217	=217	=217	=217
[2FF#/	[2F#/	12r	[2FFF#/	[2F#\	2r	2r	12ee\L]	(12a#/L
.	.	12r	.	.	.	.	12ff#\	12g#/)
.	.	12cc#\	.	.	.	.	12ee\J	12a#/J
.	.	(12ff#\L	.	.	.	.	(12dd\L	12b\L
.	.	12a#\)	.	.	.	.	12cc#\)	12cc#\
.	.	12b\J	.	.	.	.	12b\J	12dd\J
=218	=218	=218	=218	=218	=218	=218	=218	=218
2FF#/_	2F#/_	6cc#/L	2FFF#/_	2F#\_	2r	2r	(12a#/L	(12ee\L
.	.	.	.	.	.	.	12g#/	12ff#\)
.	.	12f#/Jk	.	.	.	.	12a#/J)	12ee\J
.	.	12b/L	.	.	.	.	(12b\L	(12dd\L
.	.	12g#/	.	.	.	.	12cc#\	12cc#\
.	.	12e#/J	.	.	.	.	12dd\J)	12b\J)
=219	=219	=219	=219	=219	=219	=219	=219	=219
2FF#/]	2F#/]	6f#/L	2FFF#/_	2F#\_	2r	2r	(12ee\L	(12a#/L
.	.	.	.	.	.	.	12ff#\	12g#/
.	.	12c#/Jk	.	.	.	.	12ee\J)	12a#/J)
.	.	12d/L	.	.	.	.	(12dd\L	(12b\L
.	.	12A#/	.	.	.	.	12cc#\	12cc#\
.	.	12B/J	.	.	.	.	12b\J)	12dd\J)
=220	=220	=220	=220	=220	=220	=220	=220	=220
!tasto solo	!	!	!	!	!	!	!	!
*solo	*solo	*solo	*	*	*	*	*	*
[2FF#/	2r	[2F#/	2FFF#/_	2F#\_	2r	12r	[4a#/	[4cc#\
.	.	.	.	.	.	12r	.	.
.	.	.	.	.	.	12cc#\	.	.
.	.	.	.	.	.	6ff#\L	12a#\L]	(12cc#\L]
.	.	.	.	.	.	.	12b\	12dd\
.	.	.	.	.	.	12cc#\Jk	12cc#\J	12ee\J)
=221	=221	=221	=221	=221	=221	=221	=221	=221
2FF#/_	2r	2F#/_	2FFF#/_	2F#\_	12r	(12dd\L	(12b\L	(12dd\L
.	.	.	.	.	12r	12cc#\)	12cc#\	12ee\
.	.	.	.	.	12B/	12b\J	12dd\J)	12ff#\J)
.	.	.	.	.	6f#\L	(12a#\L	(12cc#\L	[4ee\
.	.	.	.	.	.	12b\)	12dd\	.
.	.	.	.	.	12c#\Jk	12cc#\J	12ee\J)	.
=222	=222	=222	=222	=222	=222	=222	=222	=222
6FF#/]	2r	6F#/]	6FFF#/]	6F#\]	(12d\L	[4f#/	6a#/L	6ee\L]
.	.	.	.	.	12c#\)	.	.	.
12BB/	.	12r	12BBB/	12BB/	12B\J	.	12b/Jk	12dd\Jk
6F#\L	.	4r	6FF#\L	6F#\L	(12A#/L	6f#/L]	(12cc#\L	4cc#\
.	.	.	.	.	12B/)	.	12dd\	.
12C#\Jk	.	.	12CC#\Jk	12C#\Jk	12c#/J	12e/Jk	12ee\J)	.
=223	=223	=223	=223	=223	=223	=223	=223	=223
12D/L	2r	2r	(12DD/L	(12D/L	6F#/L	6d/L	(12ff#\L	12cc#\L
12C#/	.	.	12CC#/)	12C#/)	.	.	12a#\	12a#\
12BB/J	.	.	12BBB/J	12BB/J	12f#/Jk	12dd/Jk	12b\J)	12b\J
12AA#/L	.	.	(12AAA#/L	(12AA#/L	(12f#\L	(12cc#\L	6ff#\L	6ff#\L
12BB/	.	.	12BBB/)	12BB/)	12d\)	12dd\)	.	.
12C#/J	.	.	12CC#/J	12C#/J	12e\J	12b\J	12cc#\Jk	12cc#\Jk
=224	=224	=224	=224	=224	=224	=224	=224	=224
[4FF#/	2r	2r	[4FFF#/	[4FF#/	(12f#\L	6a#/L	(12dd\L	(12dd\L
.	.	.	.	.	12e\)	.	12cc#\)	12cc#\)
.	.	.	.	.	12d\J	12b/Jk	12b\J	12b\J
12FF#/L]	.	.	6FFF#/L]	12FF#/L]	(12e\L	(12cc#\L	(12a#\L	(12a#\L
12F#/	.	.	.	12F#/	12d\)	12dd\)	12b\)	12b\)
12E/J	.	.	12EEE/Jk	12E/J	12c#\J	12ee\J	12cc#\J	12cc#\J
=225	=225	=225	=225	=225	=225	=225	=225	=225
12D/L	2r	12r	8DDD/	8D/	8B/	8ff#\	2f#/	4f#/
12BB/	.	12d/L	.	.	.	.	.	.
.	.	.	8r	8r	8r	8r	.	.
12C#/J	.	12e/J	.	.	.	.	.	.
12D\L	.	12f#/L	4r	4r	4r	4r	.	[4b\
12E\	.	12g#/	.	.	.	.	.	.
12F#\J	.	12a/J	.	.	.	.	.	.
=226	=226	=226	=226	=226	=226	=226	=226	=226
12E\L	2r	12g#/L	2r	2r	2r	2r	2g#/	4b\]
12C#\	.	12e/	.	.	.	.	.	.
12D\J	.	12f#/J	.	.	.	.	.	.
12E\L	.	12g#/L	.	.	.	.	.	[4cc#\
12F#\	.	12a#/	.	.	.	.	.	.
12G\J	.	12b/J	.	.	.	.	.	.
=227	=227	=227	=227	=227	=227	=227	=227	=227
12F#\L	2r	12a#/L	2r	2r	2r	2r	2a#/	4cc#\]
12D\	.	12f#/	.	.	.	.	.	.
12E\J	.	12g#/J	.	.	.	.	.	.
12F#\L	.	12a#/L	.	.	.	.	.	[4dd\
12G\	.	12b/	.	.	.	.	.	.
12A\J	.	12cc#/J	.	.	.	.	.	.
=228	=228	=228	=228	=228	=228	=228	=228	=228
12G\L	2r	12b/L	2r	2r	2r	2r	2b\	4dd\]
12E\	.	12g#/	.	.	.	.	.	.
12F#\J	.	12a/J	.	.	.	.	.	.
12G#\L	.	12b\L	.	.	.	.	.	[4ee\
12A\	.	12cc#\	.	.	.	.	.	.
12B\J	.	12dd\J	.	.	.	.	.	.
=229	=229	=229	=229	=229	=229	=229	=229	=229
12A\L	2r	12cc#\L	2r	2r	2r	2r	2cc#\	6ee\L]
12F#\	.	12a#\	.	.	.	.	.	.
12G#\J	.	12b\J	.	.	.	.	.	12gg\Jk
12A#\L	.	12cc#\L	.	.	.	.	.	6ff#\L
12B\	.	12dd\	.	.	.	.	.	.
12c#\J	.	12ee\J	.	.	.	.	.	12ee\Jk
=230	=230	=230	=230	=230	=230	=230	=230	=230
6B\L	2r	(12ff#\L	12r	12r	12r	12r	6dd\L	6dd\L
.	.	12dd\)	12r	12r	12r	12r	.	.
12G\Jk	.	12b\J	12GG\	12G\	12g\	12b\	12ee\Jk	12ee\Jk
6D\L	.	(12ff#\L	6DD\L	6D\L	6f#\L	6b\L	6ff#\L	6ff#\L
.	.	12dd\)	.	.	.	.	.	.
12E\Jk	.	12b\J	12EE\Jk	12E\Jk	12e\Jk	12b\Jk	12gg\Jk	12gg\Jk
=231	=231	=231	=231	=231	=231	=231	=231	=231
6F#\L	2r	(12ff#\L	6FF#\L	6F#\L	8d\	8b\	8dd\	8dd\
.	.	12dd\)	.	.	.	.	.	.
.	.	.	.	.	8r	8r	8r	8r
12E\Jk	.	12b\J	12EE\Jk	12E\Jk	.	.	.	.
6F#/L	.	(12f#/L	6FF#/L	6F#/L	8f#\	8a#t/	8cc#t\	8cc#t\
.	.	12b/	.	.	.	.	.	.
.	.	.	.	.	8r	8r	8r	8r
12FF#/Jk	.	12a#/J)	12FFF#/Jk	12FF#/Jk	.	.	.	.
=232	=232	=232	=232	=232	=232	=232	=232	=232
4BB/	2r	4b\	4BBB/	4BB/	4d\	4f#/	4b\	4b\
4r	.	4r	4r	4r	4r	4r	4r	4r
=233	=233	=233	=233	=233	=233	=233	=233	=233
4D\ 4F#\ 4A\	2r	4d/ 4f#/ 4a/ 4dd/	4DD\	4D\	2r	2r	12r	2r
.	.	.	.	.	.	.	12r	.
.	.	.	.	.	.	.	12a/	.
4r	.	4r	4r	4r	.	.	6dd\L	.
.	.	.	.	.	.	.	12a\Jk	.
=234	=234	=234	=234	=234	=234	=234	=234	=234
2r	2r	2r	2r	2r	2r	2r	(12b/L	2r
.	.	.	.	.	.	.	12a/)	.
.	.	.	.	.	.	.	12g/J	.
.	.	.	.	.	.	.	(12f#/L	.
.	.	.	.	.	.	.	12g/)	.
.	.	.	.	.	.	.	12a/J	.
=235	=235	=235	=235	=235	=235	=235	=235	=235
2r	2r	2r	2r	2r	2r	2r	8d/	12r
.	.	.	.	.	.	.	.	12r
.	.	.	.	.	.	.	8r	.
.	.	.	.	.	.	.	.	12dd\
.	.	.	.	.	.	.	8c#/	6aa\L
.	.	.	.	.	.	.	8r	.
.	.	.	.	.	.	.	.	12ee\Jk
=236	=236	=236	=236	=236	=236	=236	=236	=236
2r	2r	2r	2r	2r	2r	2r	8d/	12ff#\L
.	.	.	.	.	.	.	.	12ee\
.	.	.	.	.	.	.	8r	.
.	.	.	.	.	.	.	.	12dd\J
.	.	.	.	.	.	.	8e/	12cc#\L
.	.	.	.	.	.	.	.	12dd\
.	.	.	.	.	.	.	8r	.
.	.	.	.	.	.	.	.	12ee\J
=237	=237	=237	=237	=237	=237	=237	=237	=237
2r	2r	2r	2r	2r	2r	2r	(12f#\L	8a/
.	.	.	.	.	.	.	12a\)	.
.	.	.	.	.	.	.	.	8r
.	.	.	.	.	.	.	12dd\J	.
.	.	.	.	.	.	.	(12dd\L	8f#/
.	.	.	.	.	.	.	12cc#\)	.
.	.	.	.	.	.	.	.	8r
.	.	.	.	.	.	.	12dd\J	.
=238	=238	=238	=238	=238	=238	=238	=238	=238
2r	2r	2r	2r	2r	2r	2r	(12b\L	8g/
.	.	.	.	.	.	.	12ee\)	.
.	.	.	.	.	.	.	.	8r
.	.	.	.	.	.	.	12dd\J	.
.	.	.	.	.	.	.	(12cc#\L	8a/
.	.	.	.	.	.	.	12ff#\)	.
.	.	.	.	.	.	.	.	8r
.	.	.	.	.	.	.	12ee\J	.
=239	=239	=239	=239	=239	=239	=239	=239	=239
2r	2r	2r	2r	2r	2r	2r	8dd\	12b\L
.	.	.	.	.	.	.	.	12dd\
.	.	.	.	.	.	.	8r	.
.	.	.	.	.	.	.	.	12ff#\J
.	.	.	.	.	.	.	8a/	12ff#\L
.	.	.	.	.	.	.	.	12ee\
.	.	.	.	.	.	.	8r	.
.	.	.	.	.	.	.	.	12ff#\J
=240	=240	=240	=240	=240	=240	=240	=240	=240
2r	2r	2r	2r	2r	2r	2r	8b\	12dd\L
.	.	.	.	.	.	.	.	12gg\
.	.	.	.	.	.	.	8r	.
.	.	.	.	.	.	.	.	12ff#\J
.	.	.	.	.	.	.	8cc#\	12ee\L
.	.	.	.	.	.	.	.	12aa\
.	.	.	.	.	.	.	8r	.
.	.	.	.	.	.	.	.	12gg\J
=241	=241	=241	=241	=241	=241	=241	=241	=241
12r	2r	2r	2r	2r	2r	2r	(12dd\L	(12ff#\L
12r	.	.	.	.	.	.	12ff#\)	12aa\)
12A\	.	.	.	.	.	.	12ee\J	12gg\J
6d\L	.	.	.	.	.	.	(12dd\L	(12ff#\L
.	.	.	.	.	.	.	12ff#\)	12aa\)
12A\Jk	.	.	.	.	.	.	12ee\J	12gg\J
=242	=242	=242	=242	=242	=242	=242	=242	=242
12B\L	2r	2r	2r	2r	2r	2r	[4dd\	6ff#\L
12A\	.	.	.	.	.	.	.	.
12G\J	.	.	.	.	.	.	.	12bb\Jk
12F#\L	.	.	.	.	.	.	6dd\L]	6aa\L
12G\	.	.	.	.	.	.	.	.
12A\J	.	.	.	.	.	.	12cc#\Jk	12gg\Jk
=243	=243	=243	=243	=243	=243	=243	=243	=243
8D\	2r	12r	2r	2r	2r	2r	(12dd\L	6ff#\L
.	.	12r	.	.	.	.	12ee\)	.
8r	.	.	.	.	.	.	.	.
.	.	12dd\	.	.	.	.	12ff#\J	12a\Jk
8C#/	.	6aa\L	.	.	.	.	(12ee\L	6ee\L
.	.	.	.	.	.	.	12ff#\)	.
8r	.	.	.	.	.	.	.	.
.	.	12ee\Jk	.	.	.	.	12gg\J	12a\Jk
=244	=244	=244	=244	=244	=244	=244	=244	=244
8D\	2r	12ff#\L	2r	2r	2r	2r	(12ff#\L	8ff#\
.	.	12ee\	.	.	.	.	12gg\)	.
8r	.	.	.	.	.	.	.	8r
.	.	12dd\J	.	.	.	.	12ff#\J	.
8E\	.	12cc#\L	.	.	.	.	(12ee\L	8gg#\
.	.	12dd\	.	.	.	.	12ff#\)	.
8r	.	.	.	.	.	.	.	8r
.	.	12ee\J	.	.	.	.	12dd\J	.
=245	=245	=245	=245	=245	=245	=245	=245	=245
8F#\	2r	12a\L	2r	2r	2r	2r	(12cc#\L	[2aa\
.	.	12cc#\	.	.	.	.	12ee\)	.
8r	.	.	.	.	.	.	.	.
.	.	12b\J	.	.	.	.	12dd\J	.
8C#/	.	12a\L	.	.	.	.	(12cc#\L	.
.	.	12b\	.	.	.	.	12dd\)	.
8r	.	.	.	.	.	.	.	.
.	.	12cc#\J	.	.	.	.	12ee\J	.
=246	=246	=246	=246	=246	=246	=246	=246	=246
8D\	2r	12f#/L	2r	2r	2r	2r	8b\	2aa\_
.	.	12b/	.	.	.	.	.	.
8r	.	.	.	.	.	.	8r	.
.	.	12a/J	.	.	.	.	.	.
8E\	.	12g#/L	.	.	.	.	8cc#\	.
.	.	12cc#/	.	.	.	.	.	.
8r	.	.	.	.	.	.	8r	.
.	.	12b/J	.	.	.	.	.	.
=247	=247	=247	=247	=247	=247	=247	=247	=247
8F#\	2r	24a\LL	2r	2r	2r	2r	[2dd\	8aa\]
.	.	24g#\	.	.	.	.	.	.
.	.	24a\	.	.	.	.	.	.
8r	.	24b\	.	.	.	.	.	8r
.	.	24cc#\	.	.	.	.	.	.
.	.	24dd\JJ	.	.	.	.	.	.
8E\	.	24ee\LL	.	.	.	.	.	8gg#\
.	.	24ff#\	.	.	.	.	.	.
.	.	24ee\	.	.	.	.	.	.
8r	.	24dd\	.	.	.	.	.	8r
.	.	24cc#\	.	.	.	.	.	.
.	.	24b\JJ	.	.	.	.	.	.
=248	=248	=248	=248	=248	=248	=248	=248	=248
8F#\	2r	24a/LL	2r	2r	2r	2r	2dd\_	8aa\
.	.	24cc#/	.	.	.	.	.	.
.	.	24b/	.	.	.	.	.	.
8r	.	24a/	.	.	.	.	.	8r
.	.	24g#/	.	.	.	.	.	.
.	.	24f#/JJ	.	.	.	.	.	.
8G#\	.	24e/LL	.	.	.	.	.	8bb\
.	.	24f#/	.	.	.	.	.	.
.	.	24e/	.	.	.	.	.	.
8r	.	24d/	.	.	.	.	.	8r
.	.	24c#/	.	.	.	.	.	.
.	.	24B/JJ	.	.	.	.	.	.
=249	=249	=249	=249	=249	=249	=249	=249	=249
12A\L	2r	8A/	2r	2r	2r	2r	12dd\L]	6ee\L
12c#\	.	.	.	.	.	.	12ee\	.
.	.	8r	.	.	.	.	.	.
12B\J	.	.	.	.	.	.	12dd\J	12ee\Jk
12A\L	.	8a/	.	.	.	.	(12cc#\L	6aa\L
12B\	.	.	.	.	.	.	12dd\)	.
.	.	8r	.	.	.	.	.	.
12c#\J	.	.	.	.	.	.	12ee\J	12ee\Jk
=250	=250	=250	=250	=250	=250	=250	=250	=250
8d\	2r	8a/	2r	2r	2r	2r	6a\L	12ff#\L
.	.	.	.	.	.	.	.	12ee\
8r	.	8r	.	.	.	.	.	.
.	.	.	.	.	.	.	12ff#\Jk	12dd\J
8e\	.	8g#/	.	.	.	.	6ee\L	12cc#\L
.	.	.	.	.	.	.	.	12dd\
8r	.	8r	.	.	.	.	.	.
.	.	.	.	.	.	.	12dd\Jk	12ee\J
=251	=251	=251	=251	=251	=251	=251	=251	=251
[2f#t\	2r	[2aT/	2r	2r	2r	2r	(12cc#\L	(12a\L
.	.	.	.	.	.	.	12ee\)	12cc#\)
.	.	.	.	.	.	.	12dd\J	12b\J
.	.	.	.	.	.	.	(12cc#\L	(12a\L
.	.	.	.	.	.	.	12ee\)	12cc#\)
.	.	.	.	.	.	.	12dd\J	12b\J
=252	=252	=252	=252	=252	=252	=252	=252	=252
12f#\]	2r	12a/]	2r	2r	2r	2r	[2cc#\	[2a/
12a\L	.	12cc#/L	.	.	.	.	.	.
12g#\J	.	12b/J	.	.	.	.	.	.
12f#\L	.	12a/L	.	.	.	.	.	.
12e\	.	12g#/	.	.	.	.	.	.
12d\J	.	12f#/J	.	.	.	.	.	.
=253	=253	=253	=253	=253	=253	=253	=253	=253
[2c#t\	2r	[2eT/	2r	2r	2r	2r	12cc#/L]	12a\L]
.	.	.	.	.	.	.	12e/	12cc#\
.	.	.	.	.	.	.	12d/J	12b\J
.	.	.	.	.	.	.	(12c#/L	(12a\L
.	.	.	.	.	.	.	12e/)	12cc#\)
.	.	.	.	.	.	.	12d/J	12b\J
=254	=254	=254	=254	=254	=254	=254	=254	=254
12c#\]	2r	12e/]	2r	2r	2r	2r	2c#/	[2a/
12A\L	.	12c#/L	.	.	.	.	.	.
12B\J	.	12d/J	.	.	.	.	.	.
12c#\L	.	12e/L	.	.	.	.	.	.
12B\	.	12d/	.	.	.	.	.	.
12c#\J	.	12e/J	.	.	.	.	.	.
=255	=255	=255	=255	=255	=255	=255	=255	=255
12d#\L	2r	12f#/L	2r	2r	2r	2r	2B/	2a/_
12f#\	.	12a/	.	.	.	.	.	.
12e\J	.	12g#/J	.	.	.	.	.	.
12d#\L	.	12f#/L	.	.	.	.	.	.
12f#\	.	12a/	.	.	.	.	.	.
12e\J	.	12g#/J	.	.	.	.	.	.
=256	=256	=256	=256	=256	=256	=256	=256	=256
12d#\L	2r	12f#/L	2r	2r	2r	2r	[2ff#\	2a/]
12B\	.	12d#/	.	.	.	.	.	.
12c#\J	.	12e/J	.	.	.	.	.	.
12d#\L	.	12f#/L	.	.	.	.	.	.
12c#\	.	12e/	.	.	.	.	.	.
12d#\J	.	12f#/J	.	.	.	.	.	.
=257	=257	=257	=257	=257	=257	=257	=257	=257
24e\LL	2r	8g#/	2r	2r	2r	2r	4ff#\]	12g#/L
24d\	.	.	.	.	.	.	.	.
24e\	.	.	.	.	.	.	.	12a/
24f#\	.	8r	.	.	.	.	.	.
24e\	.	.	.	.	.	.	.	12b/J
24d\JJ	.	.	.	.	.	.	.	.
24c#\LL	.	8b/ 8cc#/ 8ee/	.	.	.	.	12ee\L	[4cc#\
24d\	.	.	.	.	.	.	.	.
24c#\	.	.	.	.	.	.	12ff#\	.
24B\	.	8r	.	.	.	.	.	.
24A\	.	.	.	.	.	.	12gg#\J	.
24G#\JJ	.	.	.	.	.	.	.	.
=258	=258	=258	=258	=258	=258	=258	=258	=258
24F#\LL	2r	8a/ 8cc#/ 8ee/	2r	2r	2r	2r	[4aa\	12cc#\L]
24E\	.	.	.	.	.	.	.	.
24F#\	.	.	.	.	.	.	.	12ff#\
24G#\	.	8r	.	.	.	.	.	.
24A\	.	.	.	.	.	.	.	12ee\J
24F#\JJ	.	.	.	.	.	.	.	.
24B\LL	.	8f#/ 8b/ 8dd/	.	.	.	.	12aa\L]	[4dd\
24c#\	.	.	.	.	.	.	.	.
24B\	.	.	.	.	.	.	12bb\	.
24A\	.	8r	.	.	.	.	.	.
24G#\	.	.	.	.	.	.	12aa\J	.
24F#\JJ	.	.	.	.	.	.	.	.
=259	=259	=259	=259	=259	=259	=259	=259	=259
24E\LL	4r	8g#/ 8b/ 8dd/	2r	2r	2r	2r	(12gg#\L	6dd\L]
24D\	.	.	.	.	.	.	.	.
24E\	.	.	.	.	.	.	12ff#\)	.
24F#\	.	8r	.	.	.	.	.	.
24G#\	.	.	.	.	.	.	12ee\J	12bb\Jk
24E\JJ	.	.	.	.	.	.	.	.
24F#\LL	[4a\	6cc#/L	.	.	.	.	[4aa\	6cc#\L
24A\	.	.	.	.	.	.	.	.
24G#\	.	.	.	.	.	.	.	.
24F#\	.	.	.	.	.	.	.	.
24E\	.	12dd/Jk	.	.	.	.	.	12ff#\Jk
24D\JJ	.	.	.	.	.	.	.	.
=260	=260	=260	=260	=260	=260	=260	=260	=260
12C#/L	4a\]	6ee/L	2r	2r	2r	2r	4aa\]	12ee\L
12BB/	.	.	.	.	.	.	.	12dd\
12AA/J	.	12ff#/Jk	.	.	.	.	.	12cc#\J
6E/L	4r	6b/L	.	.	.	.	4gg#\	12b\L
.	.	.	.	.	.	.	.	12cc#\
12EE/Jk	.	12a/Jk	.	.	.	.	.	12dd\J
=261	=261	=261	=261	=261	=261	=261	=261	=261
8AA/	2r	8a/	4r	4r	12r	2r	[4aa\	12cc#\L
.	.	.	.	.	12r	.	.	12b\
8r	.	8r	.	.	.	.	.	.
.	.	.	.	.	12a\	.	.	12a\J
*accomp	*accomp	*accomp	*	*	*	*	*	*
8FF#/	.	4r	8FFF#/	8FF#/	6dd\L	.	12aa\L]	[4dd\
.	.	.	.	.	.	.	12gg\	.
8r	.	.	8r	8r	.	.	.	.
.	.	.	.	.	12a\Jk	.	12ff#\J	.
=262	=262	=262	=262	=262	=262	=262	=262	=262
8GG/	2r	2r	8GGG/	8GG/	(12b\L	2r	[4ee\	12dd\L]
.	.	.	.	.	12a\)	.	.	12cc#\
8r	.	.	8r	8r	.	.	.	.
.	.	.	.	.	12g\J	.	.	12b\J
8AA/	.	.	8AAA/	8AA/	(12f#\L	.	12ee\L]	6a/L
.	.	.	.	.	12g\)	.	12dd\	.
8r	.	.	8r	8r	.	.	.	.
.	.	.	.	.	12a\J	.	12cc#\J	12g/Jk
=263	=263	=263	=263	=263	=263	=263	=263	=263
8BB/	2r	2r	8BBB/	8BB/	8d\	12r	(12dd\L	12f#/L
.	.	.	.	.	.	12r	12cc#\)	12e/
8r	.	.	8r	8r	8r	.	.	.
.	.	.	.	.	.	12dd\	12b\J	12d/J
8C#/	.	.	8CC#/	8C#/	8e\	6aa\L	(12a\L	8a/
.	.	.	.	.	.	.	12ee\)	.
8r	.	.	8r	8r	8r	.	.	8r
.	.	.	.	.	.	12ee\Jk	12gg\J	.
=264	=264	=264	=264	=264	=264	=264	=264	=264
8D\	2r	2r	8DD\	8D\	8A/	(12ff#\L	8ff#\	2r
.	.	.	.	.	.	12ee\)	.	.
8r	.	.	8r	8r	8r	.	8r	.
.	.	.	.	.	.	12dd\J	.	.
8E\	.	.	8EE\	8E\	8e\	(12cc#\L	8gg#\	.
.	.	.	.	.	.	12dd\)	.	.
8r	.	.	8r	8r	8r	.	8r	.
.	.	.	.	.	.	12ee\J	.	.
=265	=265	=265	=265	=265	=265	=265	=265	=265
8F#\	2r	2r	8FF#\	8F#\	(12c#\L	(12a\L	6aa\	12r
.	.	.	.	.	12d\)	12b\)	.	12r
8r	.	.	8r	8r	.	.	.	.
.	.	.	.	.	12e\J	12cc#\J	12aa\	12aa\
8F#\	.	.	8FF#\	8F#\	(12f#\L	(12dd\L	6ddd\L	6ddd\L
.	.	.	.	.	12g\)	12ee\)	.	.
8r	.	.	8r	8r	.	.	.	.
.	.	.	.	.	12a\J	12ff#\J	12aa\Jk	12aa\Jk
=266	=266	=266	=266	=266	=266	=266	=266	=266
8G\	2r	2r	8GG\	8G\	8d\	8b\	(12bb\L	12bb\L
.	.	.	.	.	.	.	12aa\)	12aa\
8r	.	.	8r	8r	8r	8r	.	.
.	.	.	.	.	.	.	12gg\J	12gg\J
8A\	.	.	8AA\	8A\	8a\	8cc#\	(12ff#\L	12ff#\L
.	.	.	.	.	.	.	12gg\)	12gg\
8r	.	.	8r	8r	8r	8r	.	.
.	.	.	.	.	.	.	12aa\J	12aa\J
=267	=267	=267	=267	=267	=267	=267	=267	=267
8B\	2r	2r	8BB\	8B\	8f#\	(12b\L	8dd\	8dd\
.	.	.	.	.	.	12dd\)	.	.
8r	.	.	8r	8r	8r	.	8r	8r
.	.	.	.	.	.	12ff#\J	.	.
8A\	.	.	8AA\	8A\	(12a\L	(12ff#\L	8cc#\	8cc#\
.	.	.	.	.	12g\)	12ee\)	.	.
8r	.	.	8r	8r	.	.	8r	8r
.	.	.	.	.	12a\J	12ff#\J	.	.
=268	=268	=268	=268	=268	=268	=268	=268	=268
8B\	2r	2r	8BB\	8B\	(12f#\L	(12dd\L	8b\	8b\
.	.	.	.	.	12e\)	12gg\)	.	.
8r	.	.	8r	8r	.	.	8r	8r
.	.	.	.	.	12d\J	12ff#\J	.	.
8c#\	.	.	8C#\	8c#\	8a\	(12ee\L	8ee\	8ee\
.	.	.	.	.	.	12aa\)	.	.
8r	.	.	8r	8r	8r	.	8r	8r
.	.	.	.	.	.	12gg\J	.	.
=269	=269	=269	=269	=269	=269	=269	=269	=269
8d\	2r	2r	8D\	8d\	8a\	8ff#\	(12dd\L	12dd\L
.	.	.	.	.	.	.	12ff#\)	12ff#\
8r	.	.	8r	8r	8r	8r	.	.
.	.	.	.	.	.	.	12aa\J	12aa\J
4r	.	.	4r	4r	8c#\	8ee\	(12aa\L	12aa\L
.	.	.	.	.	.	.	12gg\)	12gg\
.	.	.	.	.	8r	8r	.	.
.	.	.	.	.	.	.	12aa\J	12aa\J
=270	=270	=270	=270	=270	=270	=270	=270	=270
2r	2r	2r	2r	2r	8d\	8ee\	(12ff#\L	12ff#\L
.	.	.	.	.	.	.	12bb\)	12bb\
.	.	.	.	.	8r	8r	.	.
.	.	.	.	.	.	.	12aa\J	12aa\J
.	.	.	.	.	8e\	8dd\	(12gg#\L	12gg#\L
.	.	.	.	.	.	.	12ccc#\)	12ccc#\
.	.	.	.	.	8r	8r	.	.
.	.	.	.	.	.	.	12bb\J	12bb\J
=271	=271	=271	=271	=271	=271	=271	=271	=271
12r	2r	2r	12r	12r	6f#\L	(12cc#\L	[4aa\	[4aa\
12r	.	.	12r	12r	.	12dd\)	.	.
12A\	.	.	12AA\	12A\	12cc#\Jk	12ee\J	.	.
8.d\L	.	.	6D\L	6d\L	6a\L	(12ff#\L	12aa\L]	12aa\L]
.	.	.	.	.	.	12gg\)	12bb\	12bb\
.	.	.	12AA\Jk	12A\Jk	12g\Jk	12aa\J	12ccc#\J	12ccc#\J
16A\Jk	.	.	.	.	.	.	.	.
=272	=272	=272	=272	=272	=272	=272	=272	=272
12B\L	2r	12r	(12BB\L	(12B\L	6f#\L	[4dd\	(12ddd\L	12ddd\L
12A\	.	12r	12AA\)	12A\)	.	.	12ccc#\)	12ccc#\
12G\J	.	12dd\	12GG\J	12G\J	12g\Jk	.	12bb\J	12bb\J
12F#\L	.	8.aa\L	(12FF#\L	(12F#\L	6a\L	6dd\L]	(12aa\L	12aa\L
12G\	.	.	12GG\)	12G\)	.	.	12bb\)	12bb\
12A\J	.	.	12AA\J	12A\J	12a\Jk	12cc#\Jk	12gg\J	12gg\J
.	.	16ee\Jk	.	.	.	.	.	.
=273	=273	=273	=273	=273	=273	=273	=273	=273
8D\	2r	12ff#\L	8DD\	8D\	8a\	8dd\	8ff#\	8ff#\
.	.	12ee\	.	.	.	.	.	.
8r	.	.	8r	8r	8r	8r	8r	8r
.	.	12dd\J	.	.	.	.	.	.
8E\	.	12cc#\L	8EE\	8E\	8g\	8cc#\	8gg\	8gg\
.	.	12dd\	.	.	.	.	.	.
8r	.	.	8r	8r	8r	8r	8r	8r
.	.	12ee\J	.	.	.	.	.	.
=274	=274	=274	=274	=274	=274	=274	=274	=274
8F#\	2r	24a/LL	8FF#\	8F#\	8f#\	8dd\	8aa\	8aa\
.	.	24f#/	.	.	.	.	.	.
.	.	24g/	.	.	.	.	.	.
8r	.	24a/	8r	8r	8r	8r	8r	8r
.	.	24b/	.	.	.	.	.	.
.	.	24cc#/JJ	.	.	.	.	.	.
8FF#/	.	24dd\LL	8FFF#/	8FF#/	8d\	8a/	8cc\	8cc\
.	.	24ee\	.	.	.	.	.	.
.	.	24dd\	.	.	.	.	.	.
8r	.	24cc#\	8r	8r	8r	8r	8r	8r
.	.	24b\	.	.	.	.	.	.
.	.	24a\JJ	.	.	.	.	.	.
=275	=275	=275	=275	=275	=275	=275	=275	=275
8GG/	2r	24b/LL	8GGG/	8GG/	8d\	8g/	8b\	8b\
.	.	24dd/	.	.	.	.	.	.
.	.	24cc#/	.	.	.	.	.	.
8r	.	24b/	8r	8r	8r	8r	8r	8r
.	.	24a/	.	.	.	.	.	.
.	.	24g/JJ	.	.	.	.	.	.
8AA/	.	24f#/LL	8AAA/	8AA/	8a\	8f#/	8cc#\	8cc#\
.	.	24e/	.	.	.	.	.	.
.	.	24f#/	.	.	.	.	.	.
8r	.	24g/	8r	8r	8r	8r	8r	8r
.	.	24a/	.	.	.	.	.	.
.	.	24f#/JJ	.	.	.	.	.	.
=276	=276	=276	=276	=276	=276	=276	=276	=276
8BB/	2r	24d/LL	8BBB/	8BB/	8f#\	8b\	8dd\	8dd\
.	.	24c#/	.	.	.	.	.	.
.	.	24d/	.	.	.	.	.	.
8r	.	24e/	8r	8r	8r	8r	8r	8r
.	.	24f#/	.	.	.	.	.	.
.	.	24g/JJ	.	.	.	.	.	.
8C#/	.	24a/LL	8CC#/	8C#/	(12e\L	(12c#/L	(12e/L	(12a\L
.	.	24b/	.	.	.	.	.	.
.	.	24a/	.	.	12c#\	12e/	12a/	12cc#\
8r	.	24g/	8r	8r	.	.	.	.
.	.	24f#/	.	.	12A\J)	12a/J)	12cc#/J)	12ee\J)
.	.	24e/JJ	.	.	.	.	.	.
=277	=277	=277	=277	=277	=277	=277	=277	=277
8D\	2r	24f#/LL	8DD\	8D\	(12f#\L	(12d/L	(12f#/L	(12a\L
.	.	24a/	.	.	.	.	.	.
.	.	24g/	.	.	12d\	12f#/	12a/	12dd\
8r	.	24f#/	8r	8r	.	.	.	.
.	.	24e/	.	.	12A\J)	12a/J)	12dd/J)	12ff#\J)
.	.	24d/JJ	.	.	.	.	.	.
8E\	.	24c#/LL	8EE\	8E\	(12g\L	(12A/L	(12e/L	(12cc#\L
.	.	24B/	.	.	.	.	.	.
.	.	24c#/	.	.	12e\	12c#/	12a/	12ee\
8r	.	24d/	8r	8r	.	.	.	.
.	.	24e/	.	.	12c#\J)	12e/J)	12cc#/J)	12gg\J)
.	.	24c#/JJ	.	.	.	.	.	.
=278	=278	=278	=278	=278	=278	=278	=278	=278
8F#\	2r	24A/LL	8FF#\	8F#\	8f#\	8d/	8dd\	8aa\
.	.	24d/	.	.	.	.	.	.
.	.	24e/	.	.	.	.	.	.
8r	.	24f#/	8r	8r	8r	8r	8r	8r
.	.	24e/	.	.	.	.	.	.
.	.	24d/JJ	.	.	.	.	.	.
8G\	.	24B/LL	8GG\	8G\	8d\	8dd\	8gg\	8bb\
.	.	24e/	.	.	.	.	.	.
.	.	24f#/	.	.	.	.	.	.
8r	.	24g/	8r	8r	8r	8r	8r	8r
.	.	24f#/	.	.	.	.	.	.
.	.	24e/JJ	.	.	.	.	.	.
=279	=279	=279	=279	=279	=279	=279	=279	=279
8A\	2r	24c#/LL	8AA\	8A\	8f#\	8cc#\	8ff#\	8aa\
.	.	24f#/	.	.	.	.	.	.
.	.	24g/	.	.	.	.	.	.
8r	.	24a/	8r	8r	8r	8r	8r	8r
.	.	24g/	.	.	.	.	.	.
.	.	24f#/JJ	.	.	.	.	.	.
8B\	.	24d/LL	8BB\	8B\	8f#\	8b\	8dd\	8gg\
.	.	24g/	.	.	.	.	.	.
.	.	24a/	.	.	.	.	.	.
8r	.	24b/	8r	8r	8r	8r	8r	8r
.	.	24a/	.	.	.	.	.	.
.	.	24g/JJ	.	.	.	.	.	.
=280	=280	=280	=280	=280	=280	=280	=280	=280
6c#\	2r	24e/LL	6C#\	6c#\	8e\	8ee\	8a/	8gg\
.	.	24g/	.	.	.	.	.	.
.	.	24a/	.	.	.	.	.	.
.	.	24b/	.	.	8r	8r	8r	8r
12A\	.	24a/	12AA\	12A\	.	.	.	.
.	.	24g/JJ	.	.	.	.	.	.
6d\L	.	24f#/LL	6D\L	6d\L	6f#\L	6dd\L	6a/L	12ff#\L
.	.	24g/	.	.	.	.	.	.
.	.	24a/	.	.	.	.	.	12gg\
.	.	24b/	.	.	.	.	.	.
12A\Jk	.	24cc#/	12AA\Jk	12A\Jk	12e\Jk	12cc#\Jk	12g/Jk	12aa\J
.	.	24a/JJ	.	.	.	.	.	.
=281	=281	=281	=281	=281	=281	=281	=281	=281
12B\L	2r	12dd\L	(12BB\L	(12B\L	6d\L	6b/L	6f#/L	[4dd\
12A\	.	12cc#\	12AA\)	12A\)	.	.	.	.
12G\J	.	12b\J	12GG\J	12G\J	12g\Jk	12d/Jk	12g/Jk	.
12F#\L	.	12a/L	(12FF#\L	(12F#\L	6e\L	6f#/L	[4a/	12dd\L]
12G\	.	12b/	12GG\)	12G\)	.	.	.	12ee\
12A\J	.	12g/J	12AA\J	12A\J	12A\Jk	12e/Jk	.	12cc#\J
=282	=282	=282	=282	=282	=282	=282	=282	=282
12D\L	2r	8f#/	(12DD\L	(12D\L	8A/	8d/	12a/L]	6dd\
12F#\	.	.	12FF#\)	12F#\)	.	.	12a/	.
.	.	8r	.	.	8r	8r	.	.
12E\J	.	.	12EE\J	12E\J	.	.	12g/J	12aa\
12D\L	.	8dd\	(12DD\L	(12D\L	8d\	8a/	(12f#/L	6ddd\L
12E\	.	.	12EE\)	12E\)	.	.	12g/)	.
.	.	8r	.	.	8r	8r	.	.
12F#\J	.	.	12FF#\J	12F#\J	.	.	12a/J	12aa\Jk
=283	=283	=283	=283	=283	=283	=283	=283	=283
8G\	2r	8dd\	8GG\	8G\	8d\	8g/	6d/L	12bb\L
.	.	.	.	.	.	.	.	12aa\
8r	.	8r	8r	8r	8r	8r	.	.
.	.	.	.	.	.	.	12b/Jk	12gg\J
8A\	.	8cc#\	8AA\	8A\	8f#\	8c#/	6a/L	12ff#\L
.	.	.	.	.	.	.	.	12gg\
8r	.	8r	8r	8r	8r	8r	.	.
.	.	.	.	.	.	.	12g/Jk	12aa\J
=284	=284	=284	=284	=284	=284	=284	=284	=284
[2BT\	2r	[2ddT\	8BB\	8B\	[2B/	(12f#/L	(12f#/L	12dd\L
.	.	.	.	.	.	12d/)	12a/)	12ff#\
.	.	.	8r	8r	.	.	.	.
.	.	.	.	.	.	12e/J	12g/J	12ee\J
.	.	.	8BBB/	8BB/	.	(12f#/L	(12f#/L	12dd\L
.	.	.	.	.	.	12d/)	12a/)	12ff#\
.	.	.	8r	8r	.	.	.	.
.	.	.	.	.	.	12e/J	12g/J	12ee\J
=285	=285	=285	=285	=285	=285	=285	=285	=285
12B\]	2r	12dd\]	4r	4r	2B/]	[2f#/	[2f#/	[2dd\
12d\L	.	12ff#\L	.	.	.	.	.	.
12c#\J	.	12ee\J	.	.	.	.	.	.
12B\L	.	12dd\L	8BB\	8B\	.	.	.	.
12A\	.	12cc#\	.	.	.	.	.	.
.	.	.	8r	8r	.	.	.	.
12G\J	.	12b\J	.	.	.	.	.	.
=286	=286	=286	=286	=286	=286	=286	=286	=286
[2F#t\	2r	[2aT/	8FF#\	8F#\	[2A/	12f#/]	12f#/]	12dd\]
.	.	.	.	.	.	12d/L	12ff#\L	12aa\L
.	.	.	8r	8r	.	.	.	.
.	.	.	.	.	.	12e/J	12ee\J	12gg\J
.	.	.	8FFF#/	8FF#/	.	(12f#/L	(12dd\L	12ff#\L
.	.	.	.	.	.	12d/)	12ff#\)	12aa\
.	.	.	8r	8r	.	.	.	.
.	.	.	.	.	.	12e/J	12ee\J	12gg\J
=287	=287	=287	=287	=287	=287	=287	=287	=287
12F#\]	2r	12a/]	4r	4r	2A/]	6f#/L	[2dd\	2ff#\
12D\L	.	12f#/L	.	.	.	.	.	.
12E\J	.	12g/J	.	.	.	12a/Jk	.	.
12F#\L	.	12a/L	8FF#\	8F#\	.	(12dd\L	.	.
12E\	.	12g/	.	.	.	12cc#\)	.	.
.	.	.	8r	8r	.	.	.	.
12F#\J	.	12a/J	.	.	.	12dd\J	.	.
=288	=288	=288	=288	=288	=288	=288	=288	=288
12G#\L	2r	12b\L	8GG#\	8G#\	[2e\	[2b\	2dd\_	[2ee\
12B\	.	12dd\	.	.	.	.	.	.
.	.	.	8r	8r	.	.	.	.
12A\J	.	12cc#\J	.	.	.	.	.	.
12G#\L	.	12b\L	8GGG#/	8GG#/	.	.	.	.
12B\	.	12dd\	.	.	.	.	.	.
.	.	.	8r	8r	.	.	.	.
12A\J	.	12cc#\J	.	.	.	.	.	.
=289	=289	=289	=289	=289	=289	=289	=289	=289
12G#\L	2r	12b/L	4r	4r	2e\]	2b\]	2dd\]	2ee\_
12E\	.	12g#/	.	.	.	.	.	.
12F#\J	.	12a/J	.	.	.	.	.	.
12G#\L	.	12b/L	8GG#\	8G#\	.	.	.	.
12F#\	.	12a/	.	.	.	.	.	.
.	.	.	8r	8r	.	.	.	.
12G#\J	.	12b/J	.	.	.	.	.	.
=290	=290	=290	=290	=290	=290	=290	=290	=290
24A\LL	2r	8cc#/	8AA\	8A\	8e\	8cc#\	(12cc#\L	4ee\_
24c#\	.	.	.	.	.	.	.	.
24d\	.	.	.	.	.	.	12b\)	.
24e\	.	8r	8r	8r	8r	8r	.	.
24f#\	.	.	.	.	.	.	12a\J	.
24g\JJ	.	.	.	.	.	.	.	.
8a\	.	24r	4r	8F#\	8f#\	8cc#\	4aa\	12ee\L]
.	.	24gg/LL	.	.	.	.	.	.
.	.	24ff#/	.	.	.	.	.	12ff#\
8r	.	24ee/	.	8r	8r	8r	.	.
.	.	24dd/	.	.	.	.	.	12ee\J
.	.	24cc#/JJ	.	.	.	.	.	.
=291	=291	=291	=291	=291	=291	=291	=291	=291
24r	2r	8dd/	2r	8BB/	8f#\	8b\	12aa\L	[4dd\
24B\LL	.	.	.	.	.	.	.	.
24c#\	.	.	.	.	.	.	12bb\	.
24d\	.	8r	.	8r	8r	8r	.	.
24e\	.	.	.	.	.	.	12aa\J	.
24f#\JJ	.	.	.	.	.	.	.	.
8g\	.	24r	.	8E\	8e\	8b\	[4gg\	12dd\L]
.	.	24ff#/LL	.	.	.	.	.	.
.	.	24ee/	.	.	.	.	.	12ee\
8r	.	24dd/	.	8r	8r	8r	.	.
.	.	24cc#/	.	.	.	.	.	12dd\J
.	.	24b/JJ	.	.	.	.	.	.
=292	=292	=292	=292	=292	=292	=292	=292	=292
24r	2r	8cc#/	2r	8AA/	8e\	8a/	12gg\L]	4cc#\
24A\LL	.	.	.	.	.	.	.	.
24B\	.	.	.	.	.	.	12aa\	.
24c#\	.	8r	.	8r	8r	8r	.	.
24d\	.	.	.	.	.	.	12gg\J	.
24e\JJ	.	.	.	.	.	.	.	.
8f#\	.	24r	.	8D\	8d\	8a/	[4ff#\	12cc\L
.	.	24ee/LL	.	.	.	.	.	.
.	.	24dd/	.	.	.	.	.	12dd\
8r	.	24cc/	.	8r	8r	8r	.	.
.	.	24b/	.	.	.	.	.	12cc\J
.	.	24a/JJ	.	.	.	.	.	.
=293	=293	=293	=293	=293	=293	=293	=293	=293
8G\	2r	24b/LL	2r	4GG/	4d\	4b\	12ff#\L]	4b\
.	.	24cc/	.	.	.	.	.	.
.	.	24b/	.	.	.	.	12b\	.
8r	.	24a/	.	.	.	.	.	.
.	.	24g/	.	.	.	.	12dd\J	.
.	.	24f#/JJ	.	.	.	.	.	.
24e\LL	.	12r	.	4r	4r	4r	(12ee\L	[4gg\
24f#\	.	.	.	.	.	.	.	.
24e\	.	12r	.	.	.	.	12ff#\)	.
24d\	.	.	.	.	.	.	.	.
24c#\	.	12e/ 12g/ 12b/	.	.	.	.	12gg\J	.
24B\JJ	.	.	.	.	.	.	.	.
=294	=294	=294	=294	=294	=294	=294	=294	=294
24A\LL	2r	8e/ 8g/ 8a/ 8cc#/	12r	12r	12r	12r	(12cc#\L	12gg\L]
24B\	.	.	.	.	.	.	.	.
24A\	.	.	12r	12r	12r	12r	12ee\)	12cc#\
24G\	.	8r	.	.	.	.	.	.
24F#\	.	.	12AAA/	12AA/	12a\	12cc#\	12cc#\J	12ee\J
24E\JJ	.	.	.	.	.	.	.	.
24D/LL	.	8f#/ 8a/ 8dd/	6DD/L	6D/L	6f#\L	6dd\L	(12a\L	12ff#\L
24E/	.	.	.	.	.	.	.	.
24D/	.	.	.	.	.	.	12b\)	12gg\
24C#/	.	8r	.	.	.	.	.	.
24BB/	.	.	12AAA/Jk	12AA/Jk	12e\Jk	12cc#\Jk	12cc#\J	12aa\J
24AA/JJ	.	.	.	.	.	.	.	.
=295	=295	=295	=295	=295	=295	=295	=295	=295
12BB/L	2r	6f#/ 6b/ 6dd/L	(12BBB/L	(12BB/L	(12d\L	6b\L	6f#/L	6dd\L
12AA/	.	.	12AAA/)	12AA/)	12c#\)	.	.	.
12GG/J	.	12e/ 12b/ 12dd/Jk	12GGG/J	12GG/J	12B\J	12b\Jk	12g/Jk	12ee\Jk
6AA/L	.	6e/ 6a/ 6cc#/L	6AAA/L	6AA/L	(12e\L	6a/L	6eT/L	6cc#t\L
.	.	.	.	.	12f#\)	.	.	.
12AA/Jk	.	12e/ 12g/ 12cc#/Jk	12AAA/Jk	12AA/Jk	12g\J	12a/Jk	12d/Jk	12dd\Jk
=296	=296	=296	=296	=296	=296	=296	=296	=296
8DD/	2r	8d/ 8f#/ 8a/ 8dd/	8DDD/	8DD/	6f#\	8a/	[2d/	4dd\
8r	.	8r	8r	8r	.	8r	.	.
.	.	.	.	.	12a\	.	.	.
*accomp	*accomp	*accomp	*	*	*	*	*	*
8FF#/	.	4r	4r	8FF#/	6dd\L	4r	.	4cc\
8r	.	.	.	8r	.	.	.	.
.	.	.	.	.	12a\Jk	.	.	.
=297	=297	=297	=297	=297	=297	=297	=297	=297
8GG/	2r	2r	2r	8GG/	(12b\L	12r	2d/_	4b\
.	.	.	.	.	12a\)	12r	.	.
8r	.	.	.	8r	.	.	.	.
.	.	.	.	.	12g\J	12g/	.	.
8C/	.	.	.	8C/	(12f#\L	6dd\L	.	4a/
.	.	.	.	.	12g\)	.	.	.
8r	.	.	.	8r	.	.	.	.
.	.	.	.	.	12a\J	12a\Jk	.	.
=298	=298	=298	=298	=298	=298	=298	=298	=298
6BB/	2r	2r	12r	6BB/	8d\	(12b/L	2d/_	12g/L
.	.	.	12r	.	.	12a/)	.	12a/
.	.	.	.	.	8r	.	.	.
12G\	.	.	12GG\	12G\	.	12g/J	.	12b/J
6d\L	.	.	6D\L	6d\L	8d\	(12f#/L	.	12a/L
.	.	.	.	.	.	12g/)	.	12b/
.	.	.	.	.	8r	.	.	.
12A\Jk	.	.	12AA\Jk	12A\Jk	.	12a/J	.	12cc/J
=299	=299	=299	=299	=299	=299	=299	=299	=299
12B\L	2r	12r	(12BB\L	(12B\L	(12d\L	8d/	4d/_	4f#/
12A\	.	12r	12AA\)	12A\)	12c\)	.	.	.
.	.	.	.	.	.	8r	.	.
12G\J	.	12g/	12GG\J	12G\J	12B\J	.	.	.
12F#\L	.	6dd\L	(12FF#\L	(12F#\L	(12A/L	8a/	12d/L]	[4dd\
12G#\	.	.	12GG#\)	12G#\)	12B/)	.	12e/	.
.	.	.	.	.	.	8r	.	.
12A\J	.	12a\Jk	12AA\J	12A\J	12c#/J	.	12f#/J	.
=300	=300	=300	=300	=300	=300	=300	=300	=300
[2G#t\	2r	[2bT\	8GG#\	8G#\	(12B\L	[2e/	[2e/	12dd\]
.	.	.	.	.	12d\)	.	.	12ff#\L
.	.	.	8r	8r	.	.	.	.
.	.	.	.	.	12c#\J	.	.	12ee\J
.	.	.	8GGG#/	8GG#/	(12B\L	.	.	12dd\L
.	.	.	.	.	12d\)	.	.	12ff#\
.	.	.	8r	8r	.	.	.	.
.	.	.	.	.	12c#\J	.	.	12ee\J
=301	=301	=301	=301	=301	=301	=301	=301	=301
12G#\]	2r	12b\]	4r	4r	[2B/	12e/]	2e/_	[2dd\
12B\L	.	12dd\L	.	.	.	12g#/L	.	.
12A\J	.	12cc#\J	.	.	.	12a/J	.	.
12G#\L	.	12b\L	8GG#\	8G#\	.	(12b/L	.	.
12B\	.	12dd\	.	.	.	12g#/)	.	.
.	.	.	8r	8r	.	.	.	.
12A\J	.	12cc#\J	.	.	.	12a/J	.	.
=302	=302	=302	=302	=302	=302	=302	=302	=302
[2G#t\	2r	[2bT\	8GG#\	8G#\	12B/]	[2b\	2e/_	12dd\]
.	.	.	.	.	12G#/L	.	.	12b\L
.	.	.	8r	8r	.	.	.	.
.	.	.	.	.	12A/J	.	.	12cc#\J
.	.	.	8GGG#/	8GG#/	12B/L	.	.	12dd\L
.	.	.	.	.	12G#/	.	.	12b\
.	.	.	8r	8r	.	.	.	.
.	.	.	.	.	12A/J	.	.	12cc#\J
=303	=303	=303	=303	=303	=303	=303	=303	=303
12G#\]	2r	12b\]	4r	4r	[4B/	12b\]	4e/]	[4dd\
12B\L	.	12dd\L	.	.	.	12g#/L	.	.
12A\J	.	12cc#\J	.	.	.	12a/J	.	.
12G#\L	.	12b/L	8GG#\	8G#\	6B\L]	6b\L	[4ee\	6dd\L]
12F#\	.	12a/	.	.	.	.	.	.
.	.	.	8r	8r	.	.	.	.
12E\J	.	12g#/J	.	.	12g#\Jk	12b\Jk	.	12ee\Jk
=304	=304	=304	=304	=304	=304	=304	=304	=304
12A\L	2r	12cc#\L	8AA\	8A\	6a\L	8cc#\	4ee\]	2cc#\
12c#\	.	12ee\	.	.	.	.	.	.
.	.	.	8r	8r	.	8r	.	.
12B\J	.	12dd\J	.	.	12e\Jk	.	.	.
12A\L	.	12cc#\L	12r	12r	8a\	12r	[4ff#\	.
12G\	.	12b\	12r	12r	.	12r	.	.
.	.	.	.	.	8r	.	.	.
12F#\J	.	12a\J	12FF#\	12F#\	.	12ff#\	.	.
=305	=305	=305	=305	=305	=305	=305	=305	=305
12B\L	2r	12dd\L	8BB\	8B\	12r	8dd\	4ff#\]	2dd\
12d\	.	12ff#\	.	.	12r	.	.	.
.	.	.	8r	8r	.	8r	.	.
12c#\J	.	12ee\J	.	.	12f#\	.	.	.
12B\L	.	12dd\L	12r	12r	8b\	12r	[4gg\	.
12A\	.	12cc#\	12r	12r	.	12r	.	.
.	.	.	.	.	8r	.	.	.
12G\J	.	12b\J	12GG\	12G\	.	12gg\	.	.
=306	=306	=306	=306	=306	=306	=306	=306	=306
12c#\L	2r	12ee\L	8C#\	8c#\	12r	8ee\	4gg\]	2ee\
12e\	.	12gg\	.	.	12r	.	.	.
.	.	.	8r	8r	.	8r	.	.
12d\J	.	12ff#\J	.	.	12a\	.	.	.
12c#\L	.	12ee\L	12r	12r	8cc#\	12r	[4aa\	.
12B\	.	12dd\	12r	12r	.	12r	.	.
.	.	.	.	.	8r	.	.	.
12A\J	.	12cc#\J	12AA\	12A\	.	12aa\	.	.
=307	=307	=307	=307	=307	=307	=307	=307	=307
8d\	2r	8ff#\	8D\	8d\	4r	8ff#\	6aa\]	6ff#\
8r	.	8r	8r	8r	.	8r	.	.
.	.	.	.	.	.	.	12aa\	12aa\
*accomp	*accomp	*accomp	*	*	*	*	*	*
8F#\	.	4r	8FF#\	8F#\	8d\	8aa\	6ddd\L	6ddd\L
8r	.	.	8r	8r	8r	8r	.	.
.	.	.	.	.	.	.	12aa\Jk	12aa\Jk
=308	=308	=308	=308	=308	=308	=308	=308	=308
8G\	2r	2r	8GG\	8G\	8d\	8dd\	(12bb\L	(12bb\L
.	.	.	.	.	.	.	12aa\)	12aa\)
8r	.	.	8r	8r	8r	8r	.	.
.	.	.	.	.	.	.	12gg\J	12gg\J
8A\	.	.	8AA\	8A\	8a\	8cc#\	(12ff#\L	(12ff#\L
.	.	.	.	.	.	.	12gg\)	12gg\)
8r	.	.	8r	8r	8r	8r	.	.
.	.	.	.	.	.	.	12aa\J	12aa\J
=309	=309	=309	=309	=309	=309	=309	=309	=309
12B\L	2r	2r	(12BB\L	(12B\L	6f#\L	6b\L	6dd\L	6dd\L
12A\	.	.	12AA\)	12A\)	.	.	.	.
12G\J	.	.	12GG\J	12G\J	12g\Jk	12b\Jk	12ee\Jk	12ee\Jk
6A\L	.	.	6AA\L	6A\L	6eT\L	6a/L	6cc#t\L	6cc#t\L
12AA\Jk	.	.	12AAA\Jk	12AA\Jk	12f#\Jk	12a/Jk	12dd\Jk	12dd\Jk
=310	=310	=310	=310	=310	=310	=310	=310	=310
2D;\	2r	2r	2DD;\	2D;\	2f#;\	2a;/	2dd;\	2dd;\
==	==	==	==	==	==	==	==	==
*-	*-	*-	*-	*-	*-	*-	*-	*-
!!!CDT: 1685/3//-1750/7/28
!!!OCY: Deutschland
!!!ODE: His Royal Highness Christian Ludwig, Margrave of Brandenburg.
!!!ODT: 1720//-1721//
!!!OPC: ?Coethen; ?Cothen; ?Co2then
!!!PPR: Peters
!!!PDT: 1850
!!!PPP: Leipzig
!!!AGN: concerto grosso
!!!AST: baroque, orchestral
!!!AMT: simple quadruple
!!!SCA: Bach-Werke-Verzeichnis
!!!YOR: Bach Gesellschaft, xix,127
!!!YOY: 1871; although imprint says 1869
!!!AIN: cemba; cbass; cello; viola; violn; flt
!!!EEV: 1.0
!!!RDT: 1994 April 6
!!!YER: 1994 October 23
!!!YEN: United States of America
!!!EFL: 3/3
!!!EED: W.B. Hewlett
!!!VTS: 4179933209
